calibration/preset_calibrated.cube
# Created by Lightroom AI Studio 2.0 Color Engine
TITLE "Master Studio Preset (Calibrated)"
LUT_3D_SIZE 4
DOMAIN_MIN 0.0 0.0 0.0
DOMAIN_MAX 1.0 1.0 1.0
0.003922 0.000000 0.000000
0.329412 0.090196 0.086275
0.654902 0.207843 0.164706
0.878431 0.325490 0.290196
0.192157 0.305882 0.086275
0.376471 0.325490 0.058824
0.654902 0.364706 0.188235
0.874510 0.431373 0.313726
0.392157 0.592157 0.231373
0.478431 0.592157 0.227451
0.686275 0.607843 0.219608
0.909804 0.627451 0.337255
0.521569 0.839216 0.364706
0.576471 0.843137 0.360784
0.745098 0.854902 0.321569
0.980392 0.874510 0.329412
0.121569 0.105882 0.211765
0.317647 0.129412 0.231373
0.647059 0.286275 0.329412
0.909804 0.419608 0.435294
0.243137 0.305882 0.254902
0.345098 0.309804 0.250980
0.619608 0.388235 0.333333
0.862745 0.454902 0.403922
0.435294 0.592157 0.356863
0.482353 0.576471 0.341176
0.662745 0.592157 0.349020
0.894118 0.631373 0.423529
0.537255 0.854902 0.450980
0.572549 0.854902 0.431373
0.741176 0.862745 0.403922
0.976471 0.874510 0.407843
0.286275 0.243137 0.501961
0.403922 0.247059 0.482353
0.647059 0.309804 0.501961
0.874510 0.470588 0.584314
0.349020 0.380392 0.462745
0.403922 0.368627 0.443137
0.600000 0.415686 0.486275
0.843137 0.501961 0.564706
0.466667 0.572549 0.505882
0.501961 0.568627 0.498039
0.627451 0.576471 0.509804
0.886275 0.635294 0.588235
0.525490 0.862745 0.607843
0.545098 0.862745 0.592157
0.709804 0.874510 0.576471
0.976471 0.894118 0.584314
0.470588 0.435294 0.862745
0.552941 0.423529 0.835294
0.756863 0.380392 0.811765
0.968627 0.443137 0.776471
0.470588 0.517647 0.815686
0.541176 0.509804 0.803922
0.717647 0.462745 0.776471
0.937255 0.501961 0.760784
0.415686 0.670588 0.788235
0.490196 0.658824 0.784314
0.678431 0.639216 0.772549
0.925490 0.670588 0.788235
0.552941 0.921569 0.819608
0.592157 0.913725 0.823529
0.760784 0.921569 0.858824
0.996078 0.996078 0.996078
