calibration/preset_calibrated.cube
# Created by Lightroom AI Studio 2.0 Color Engine
TITLE "Master Studio Preset (Calibrated)"
LUT_3D_SIZE 8
DOMAIN_MIN 0.0 0.0 0.0
DOMAIN_MAX 1.0 1.0 1.0
0.003922 0.000000 0.000000
0.117647 0.043137 0.050980
0.278431 0.082353 0.086275
0.435294 0.101961 0.074510
0.568627 0.160784 0.117647
0.690196 0.227451 0.180392
0.796078 0.282353 0.243137
0.878431 0.325490 0.290196
0.074510 0.117647 0.054902
0.152941 0.129412 0.066667
0.294118 0.156863 0.078431
0.439216 0.180392 0.078431
0.572549 0.215686 0.133333
0.686275 0.266667 0.188235
0.792157 0.317647 0.250980
0.878431 0.352941 0.305882
0.164706 0.254902 0.082353
0.215686 0.262745 0.082353
0.321569 0.278431 0.066667
0.454902 0.286275 0.078431
0.576471 0.313726 0.145098
0.694118 0.349020 0.207843
0.788235 0.376471 0.258824
0.874510 0.403922 0.309804
0.247059 0.396078 0.109804
0.282353 0.392157 0.101961
0.356863 0.400000 0.094118
0.478431 0.411765 0.090196
0.592157 0.427451 0.145098
0.698039 0.439216 0.211765
0.788235 0.458824 0.274510
0.878431 0.478431 0.321569
0.337255 0.513726 0.188235
0.360784 0.513726 0.188235
0.415686 0.513726 0.184314
0.501961 0.521569 0.168627
0.611765 0.537255 0.176471
0.713726 0.537255 0.219608
0.800000 0.549020 0.270588
0.882353 0.560784 0.325490
0.419608 0.631373 0.262745
0.435294 0.631373 0.258824
0.474510 0.631373 0.254902
0.549020 0.635294 0.243137
0.627451 0.639216 0.235294
0.721569 0.635294 0.235294
0.811765 0.643137 0.274510
0.913725 0.658824 0.337255
0.470588 0.725490 0.317647
0.482353 0.721569 0.313726
0.517647 0.725490 0.309804
0.572549 0.725490 0.298039
0.639216 0.729412 0.282353
0.733333 0.729412 0.266667
0.827451 0.741176 0.274510
0.921569 0.749020 0.321569
0.521569 0.839216 0.364706
0.529412 0.843137 0.368627
0.564706 0.843137 0.364706
0.615686 0.854902 0.356863
0.690196 0.858824 0.345098
0.780392 0.862745 0.317647
0.882353 0.862745 0.298039
0.980392 0.874510 0.329412
0.039216 0.039216 0.070588
0.117647 0.050980 0.090196
0.262745 0.101961 0.125490
0.431373 0.137255 0.152941
0.584314 0.200000 0.196078
0.717647 0.274510 0.250980
0.823529 0.337255 0.305882
0.925490 0.396078 0.372549
0.094118 0.121569 0.094118
0.145098 0.125490 0.101961
0.274510 0.168627 0.141176
0.423529 0.196078 0.152941
0.568627 0.239216 0.196078
0.694118 0.294118 0.239216
0.796078 0.341176 0.290196
0.890196 0.376471 0.337255
0.188235 0.262745 0.145098
0.215686 0.250980 0.137255
0.305882 0.262745 0.137255
0.443137 0.294118 0.152941
0.568627 0.321569 0.200000
0.686275 0.356863 0.247059
0.784314 0.392157 0.298039
0.874510 0.415686 0.337255
0.282353 0.403922 0.172549
0.298039 0.392157 0.164706
0.360784 0.392157 0.160784
0.466667 0.403922 0.160784
0.580392 0.419608 0.200000
0.690196 0.439216 0.250980
0.788235 0.470588 0.301961
0.878431 0.486275 0.345098
0.368627 0.525490 0.239216
0.372549 0.513726 0.223529
0.419608 0.513726 0.215686
0.501961 0.517647 0.215686
0.600000 0.525490 0.215686
0.705882 0.541176 0.258824
0.800000 0.549020 0.305882
0.886275 0.568627 0.352941
0.439216 0.635294 0.294118
0.450980 0.631373 0.286275
0.486275 0.627451 0.282353
0.541176 0.631373 0.274510
0.627451 0.631373 0.266667
0.713726 0.631373 0.266667
0.811765 0.635294 0.301961
0.901961 0.654902 0.352941
0.490196 0.725490 0.341176
0.498039 0.725490 0.333333
0.521569 0.721569 0.325490
0.572549 0.725490 0.309804
0.639216 0.725490 0.301961
0.733333 0.733333 0.294118
0.823529 0.737255 0.298039
0.917647 0.749020 0.337255
0.545098 0.854902 0.396078
0.541176 0.847059 0.380392
0.568627 0.847059 0.376471
0.615686 0.850980 0.372549
0.682353 0.858824 0.360784
0.776471 0.862745 0.337255
0.886275 0.862745 0.321569
0.980392 0.870588 0.341176
0.101961 0.090196 0.172549
0.145098 0.086275 0.160784
0.266667 0.113725 0.196078
0.419608 0.156863 0.227451
0.560784 0.235294 0.274510
0.698039 0.301961 0.325490
0.811765 0.360784 0.372549
0.913725 0.411765 0.415686
0.141176 0.152941 0.172549
0.168627 0.149020 0.172549
0.270588 0.180392 0.203922
0.415686 0.215686 0.235294
0.549020 0.266667 0.278431
0.670588 0.313726 0.309804
0.784314 0.360784 0.352941
0.882353 0.396078 0.388235
0.207843 0.262745 0.211765
0.227451 0.250980 0.203922
0.298039 0.258824 0.211765
0.419608 0.294118 0.243137
0.545098 0.337255 0.282353
0.666667 0.368627 0.313726
0.772549 0.403922 0.356863
0.866667 0.435294 0.384314
0.290196 0.392157 0.254902
0.298039 0.376471 0.239216
0.356863 0.380392 0.239216
0.447059 0.392157 0.247059
0.560784 0.419608 0.278431
0.666667 0.447059 0.317647
0.772549 0.470588 0.352941
0.870588 0.494118 0.396078
0.376471 0.513726 0.301961
0.380392 0.498039 0.286275
0.423529 0.498039 0.282353
0.486275 0.498039 0.274510
0.580392 0.513726 0.294118
0.690196 0.533333 0.329412
0.784314 0.545098 0.360784
0.878431 0.568627 0.400000
0.443137 0.623529 0.341176
0.454902 0.623529 0.341176
0.478431 0.619608 0.329412
0.541176 0.623529 0.329412
0.615686 0.627451 0.325490
0.701961 0.627451 0.329412
0.796078 0.639216 0.356863
0.894118 0.654902 0.400000
0.490196 0.725490 0.380392
0.490196 0.717647 0.376471
0.521569 0.717647 0.368627
0.572549 0.713726 0.360784
0.639216 0.721569 0.349020
0.725490 0.725490 0.341176
0.823529 0.733333 0.356863
0.921569 0.752941 0.392157
0.533333 0.854902 0.423529
0.537255 0.847059 0.419608
0.560784 0.850980 0.415686
0.607843 0.854902 0.407843
0.682353 0.858824 0.400000
0.776471 0.862745 0.376471
0.882353 0.870588 0.364706
0.980392 0.870588 0.388235
0.160784 0.129412 0.290196
0.203922 0.141176 0.286275
0.286275 0.145098 0.286275
0.419608 0.168627 0.305882
0.560784 0.247059 0.352941
0.686275 0.329412 0.400000
0.792157 0.392157 0.443137
0.898039 0.435294 0.482353
0.192157 0.192157 0.286275
0.223529 0.192157 0.274510
0.286275 0.196078 0.274510
0.400000 0.223529 0.301961
0.533333 0.282353 0.345098
0.658824 0.337255 0.384314
0.764706 0.392157 0.423529
0.866667 0.419608 0.450980
0.243137 0.282353 0.290196
0.270588 0.286275 0.298039
0.329412 0.294118 0.305882
0.415686 0.313726 0.325490
0.529412 0.349020 0.356863
0.647059 0.388235 0.392157
0.756863 0.427451 0.419608
0.858824 0.450980 0.447059
0.313726 0.396078 0.337255
0.325490 0.380392 0.321569
0.360784 0.376471 0.317647
0.435294 0.388235 0.325490
0.533333 0.419608 0.356863
0.654902 0.454902 0.388235
0.756863 0.486275 0.427451
0.866667 0.505882 0.454902
0.396078 0.501961 0.372549
0.392157 0.494118 0.356863
0.427451 0.486275 0.356863
0.482353 0.486275 0.352941
0.564706 0.501961 0.368627
0.662745 0.529412 0.392157
0.768627 0.552941 0.431373
0.878431 0.584314 0.470588
0.458824 0.615686 0.411765
0.462745 0.615686 0.407843
0.478431 0.607843 0.392157
0.537255 0.611765 0.396078
0.607843 0.611765 0.388235
0.682353 0.615686 0.396078
0.788235 0.631373 0.427451
0.894118 0.658824 0.462745
0.494118 0.717647 0.439216
0.498039 0.717647 0.431373
0.517647 0.713726 0.427451
0.568627 0.717647 0.423529
0.627451 0.717647 0.411765
0.717647 0.721569 0.407843
0.811765 0.729412 0.411765
0.913725 0.749020 0.450980
0.525490 0.862745 0.482353
0.533333 0.850980 0.478431
0.556863 0.854902 0.470588
0.600000 0.858824 0.466667
0.670588 0.858824 0.458824
0.764706 0.866667 0.439216
0.874510 0.866667 0.423529
0.976471 0.874510 0.443137
0.231373 0.188235 0.415686
0.254902 0.188235 0.400000
0.333333 0.200000 0.396078
0.431373 0.203922 0.400000
0.556863 0.254902 0.427451
0.686275 0.333333 0.470588
0.780392 0.407843 0.501961
0.886275 0.458824 0.541176
0.254902 0.247059 0.400000
0.278431 0.239216 0.384314
0.333333 0.239216 0.380392
0.415686 0.243137 0.380392
0.533333 0.286275 0.407843
0.650980 0.345098 0.447059
0.756863 0.407843 0.486275
0.854902 0.439216 0.517647
0.294118 0.321569 0.392157
0.305882 0.313726 0.372549
0.345098 0.313726 0.372549
0.419608 0.325490 0.380392
0.529412 0.364706 0.419608
0.639216 0.403922 0.450980
0.741176 0.443137 0.490196
0.847059 0.470588 0.517647
0.345098 0.400000 0.400000
0.356863 0.396078 0.392157
0.411765 0.419608 0.415686
0.458824 0.419608 0.411765
0.537255 0.435294 0.431373
0.643137 0.470588 0.466667
0.741176 0.501961 0.498039
0.858824 0.521569 0.525490
0.415686 0.505882 0.443137
0.411765 0.494118 0.427451
0.443137 0.494118 0.427451
0.486275 0.490196 0.427451
0.552941 0.501961 0.435294
0.654902 0.533333 0.462745
0.764706 0.560784 0.505882
0.874510 0.584314 0.533333
0.466667 0.603922 0.474510
0.470588 0.603922 0.474510
0.494118 0.600000 0.470588
0.533333 0.600000 0.466667
0.584314 0.600000 0.454902
0.670588 0.607843 0.466667
0.768627 0.627451 0.494118
0.890196 0.658824 0.533333
0.501961 0.713726 0.509804
0.501961 0.709804 0.505882
0.521569 0.713726 0.498039
0.560784 0.713726 0.498039
0.623529 0.717647 0.490196
0.701961 0.717647 0.478431
0.800000 0.729412 0.486275
0.913725 0.756863 0.525490
0.517647 0.866667 0.552941
0.517647 0.858824 0.541176
0.537255 0.862745 0.541176
0.592157 0.862745 0.537255
0.654902 0.866667 0.529412
0.756863 0.870588 0.517647
0.870588 0.874510 0.505882
0.972549 0.882353 0.517647
0.313726 0.266667 0.549020
0.333333 0.266667 0.533333
0.396078 0.270588 0.525490
0.478431 0.274510 0.525490
0.576471 0.278431 0.521569
0.690196 0.337255 0.541176
0.784314 0.411765 0.568627
0.870588 0.474510 0.600000
0.325490 0.305882 0.525490
0.341176 0.301961 0.509804
0.392157 0.298039 0.501961
0.462745 0.298039 0.494118
0.552941 0.301961 0.498039
0.658824 0.352941 0.517647
0.752941 0.411765 0.549020
0.847059 0.458824 0.572549
0.356863 0.372549 0.509804
0.364706 0.364706 0.498039
0.396078 0.360784 0.482353
0.462745 0.356863 0.478431
0.537255 0.360784 0.482353
0.643137 0.407843 0.517647
0.737255 0.454902 0.541176
0.839216 0.494118 0.580392
0.388235 0.443137 0.494118
0.396078 0.431373 0.490196
0.427451 0.435294 0.486275
0.478431 0.435294 0.490196
0.552941 0.450980 0.501961
0.643137 0.486275 0.529412
0.741176 0.521569 0.564706
0.847059 0.541176 0.596078
0.415686 0.513726 0.501961
0.423529 0.501961 0.494118
0.458824 0.517647 0.505882
0.529412 0.537255 0.533333
0.576471 0.537255 0.529412
0.654902 0.552941 0.549020
0.749020 0.576471 0.580392
0.870588 0.600000 0.611765
0.486275 0.607843 0.537255
0.490196 0.603922 0.533333
0.517647 0.607843 0.545098
0.549020 0.603922 0.537255
0.588235 0.600000 0.533333
0.658824 0.607843 0.545098
0.764706 0.635294 0.576471
0.890196 0.662745 0.607843
0.525490 0.709804 0.576471
0.525490 0.701961 0.572549
0.545098 0.705882 0.572549
0.568627 0.705882 0.576471
0.611765 0.705882 0.564706
0.690196 0.713726 0.564706
0.784314 0.725490 0.564706
0.913725 0.760784 0.600000
0.533333 0.862745 0.631373
0.529412 0.858824 0.627451
0.545098 0.858824 0.627451
0.576471 0.866667 0.627451
0.635294 0.874510 0.611765
0.737255 0.878431 0.603922
0.858824 0.882353 0.592157
0.968627 0.890196 0.603922
0.400000 0.352941 0.690196
0.411765 0.341176 0.670588
0.466667 0.341176 0.666667
0.545098 0.341176 0.662745
0.627451 0.341176 0.658824
0.733333 0.352941 0.654902
0.803922 0.403922 0.650980
0.878431 0.474510 0.658824
0.396078 0.372549 0.662745
0.407843 0.360784 0.650980
0.450980 0.360784 0.643137
0.529412 0.360784 0.643137
0.611765 0.352941 0.635294
0.701961 0.360784 0.631373
0.780392 0.407843 0.627451
0.858824 0.470588 0.650980
0.411765 0.431373 0.647059
0.419608 0.415686 0.639216
0.458824 0.419608 0.627451
0.525490 0.411765 0.623529
0.596078 0.403922 0.619608
0.682353 0.415686 0.615686
0.764706 0.458824 0.623529
0.847059 0.505882 0.643137
0.439216 0.501961 0.635294
0.439216 0.490196 0.623529
0.478431 0.490196 0.619608
0.529412 0.486275 0.611765
0.584314 0.478431 0.607843
0.666667 0.482353 0.607843
0.756863 0.521569 0.623529
0.847059 0.556863 0.654902
0.443137 0.556863 0.619608
0.447059 0.549020 0.607843
0.482353 0.552941 0.607843
0.529412 0.552941 0.607843
0.592157 0.549020 0.611765
0.658824 0.552941 0.611765
0.752941 0.580392 0.639216
0.854902 0.611765 0.670588
0.454902 0.615686 0.600000
0.462745 0.615686 0.603922
0.486275 0.611765 0.600000
0.533333 0.611765 0.603922
0.603922 0.627451 0.627451
0.678431 0.639216 0.643137
0.768627 0.654902 0.662745
0.878431 0.686275 0.698039
0.529412 0.713726 0.635294
0.533333 0.709804 0.631373
0.549020 0.713726 0.635294
0.584314 0.713726 0.639216
0.639216 0.721569 0.654902
0.690196 0.725490 0.658824
0.780392 0.733333 0.670588
0.917647 0.776471 0.713726
0.572549 0.854902 0.709804
0.572549 0.854902 0.709804
0.592157 0.858824 0.713726
0.627451 0.862745 0.721569
0.678431 0.874510 0.729412
0.741176 0.890196 0.745098
0.843137 0.894118 0.725490
0.964706 0.913725 0.749020
0.470588 0.435294 0.862745
0.482353 0.431373 0.847059
0.533333 0.427451 0.839216
0.607843 0.423529 0.839216
0.690196 0.403922 0.823529
0.792157 0.368627 0.807843
0.894118 0.360784 0.796078
0.968627 0.443137 0.776471
0.466667 0.447059 0.839216
0.482353 0.443137 0.831373
0.525490 0.439216 0.823529
0.600000 0.435294 0.819608
0.674510 0.415686 0.800000
0.772549 0.384314 0.800000
0.874510 0.376471 0.780392
0.952941 0.454902 0.772549
0.470588 0.494118 0.823529
0.486275 0.494118 0.819608
0.521569 0.486275 0.803922
0.592157 0.486275 0.803922
0.666667 0.462745 0.788235
0.760784 0.435294 0.780392
0.854902 0.423529 0.764706
0.941176 0.486275 0.764706
0.478431 0.560784 0.807843
0.482353 0.560784 0.807843
0.521569 0.552941 0.800000
0.580392 0.545098 0.792157
0.650980 0.533333 0.784314
0.741176 0.509804 0.776471
0.835294 0.494118 0.760784
0.929412 0.549020 0.760784
0.450980 0.623529 0.800000
0.458824 0.619608 0.792157
0.505882 0.619608 0.792157
0.564706 0.615686 0.792157
0.639216 0.603922 0.780392
0.721569 0.580392 0.768627
0.823529 0.560784 0.760784
0.917647 0.611765 0.768627
0.400000 0.694118 0.784314
0.411765 0.686275 0.784314
0.458824 0.686275 0.780392
0.525490 0.682353 0.780392
0.619608 0.682353 0.784314
0.705882 0.666667 0.772549
0.807843 0.647059 0.764706
0.925490 0.709804 0.800000
0.372549 0.788235 0.772549
0.376471 0.780392 0.768627
0.423529 0.776471 0.768627
0.490196 0.772549 0.768627
0.576471 0.764706 0.772549
0.694118 0.768627 0.792157
0.811765 0.772549 0.807843
0.937255 0.831373 0.866667
0.552941 0.921569 0.819608
0.552941 0.913725 0.815686
0.576471 0.913725 0.815686
0.631373 0.913725 0.827451
0.701961 0.917647 0.843137
0.792157 0.925490 0.870588
0.898039 0.949020 0.921569
0.996078 0.996078 0.996078
