calibration/preset_calibrated.cube
# Created by Lightroom AI Studio 2.0 Color Engine
TITLE "Master Studio Preset (Calibrated)"
LUT_3D_SIZE 64
DOMAIN_MIN 0.0 0.0 0.0
DOMAIN_MAX 1.0 1.0 1.0
0.003922 0.000000 0.000000
0.000000 0.000000 0.000000
0.000000 0.000000 0.000000
0.000000 0.000000 0.000000
0.023529 0.007843 0.011765
0.047059 0.011765 0.015686
0.066667 0.019608 0.027451
0.078431 0.031373 0.031373
0.101961 0.039216 0.050980
0.117647 0.043137 0.050980
0.133333 0.054902 0.062745
0.149020 0.050980 0.062745
0.164706 0.062745 0.074510
0.188235 0.070588 0.078431
0.207843 0.070588 0.086275
0.215686 0.074510 0.082353
0.239216 0.074510 0.082353
0.254902 0.082353 0.086275
0.278431 0.082353 0.086275
0.298039 0.086275 0.086275
0.313726 0.082353 0.090196
0.329412 0.090196 0.086275
0.352941 0.098039 0.090196
0.372549 0.098039 0.090196
0.392157 0.098039 0.078431
0.407843 0.105882 0.082353
0.419608 0.105882 0.078431
0.435294 0.101961 0.074510
0.454902 0.105882 0.074510
0.466667 0.113725 0.078431
0.486275 0.117647 0.086275
0.505882 0.125490 0.090196
0.513726 0.129412 0.086275
0.537255 0.141176 0.101961
0.549020 0.145098 0.109804
0.560784 0.152941 0.117647
0.568627 0.160784 0.117647
0.584314 0.164706 0.125490
0.600000 0.176471 0.129412
0.619608 0.184314 0.141176
0.627451 0.188235 0.145098
0.639216 0.200000 0.156863
0.654902 0.207843 0.164706
0.670588 0.211765 0.172549
0.682353 0.219608 0.180392
0.690196 0.227451 0.180392
0.705882 0.231373 0.188235
0.713726 0.239216 0.196078
0.725490 0.247059 0.203922
0.737255 0.250980 0.203922
0.745098 0.258824 0.211765
0.764706 0.270588 0.223529
0.768627 0.274510 0.227451
0.784314 0.282353 0.239216
0.796078 0.282353 0.243137
0.803922 0.290196 0.250980
0.811765 0.290196 0.254902
0.823529 0.305882 0.258824
0.839216 0.313726 0.270588
0.843137 0.317647 0.274510
0.854902 0.317647 0.278431
0.866667 0.325490 0.286275
0.870588 0.329412 0.290196
0.878431 0.325490 0.290196
0.003922 0.000000 0.000000
0.000000 0.000000 0.000000
0.003922 0.003922 0.003922
0.015686 0.007843 0.011765
0.031373 0.015686 0.011765
0.054902 0.019608 0.023529
0.070588 0.031373 0.027451
0.086275 0.039216 0.039216
0.101961 0.047059 0.047059
0.113725 0.050980 0.054902
0.137255 0.058824 0.062745
0.152941 0.066667 0.074510
0.172549 0.070588 0.074510
0.184314 0.070588 0.078431
0.200000 0.074510 0.078431
0.223529 0.082353 0.082353
0.243137 0.086275 0.086275
0.258824 0.086275 0.090196
0.278431 0.090196 0.090196
0.298039 0.098039 0.094118
0.313726 0.094118 0.090196
0.333333 0.101961 0.086275
0.352941 0.098039 0.082353
0.368627 0.105882 0.082353
0.392157 0.105882 0.078431
0.411765 0.109804 0.086275
0.423529 0.109804 0.082353
0.435294 0.109804 0.078431
0.454902 0.113725 0.078431
0.470588 0.117647 0.082353
0.486275 0.125490 0.082353
0.505882 0.125490 0.090196
0.517647 0.141176 0.094118
0.529412 0.145098 0.101961
0.545098 0.149020 0.109804
0.560784 0.160784 0.113725
0.576471 0.168627 0.125490
0.592157 0.176471 0.125490
0.603922 0.180392 0.133333
0.611765 0.188235 0.141176
0.631373 0.192157 0.149020
0.639216 0.200000 0.156863
0.654902 0.207843 0.164706
0.670588 0.211765 0.172549
0.682353 0.223529 0.184314
0.694118 0.231373 0.184314
0.709804 0.235294 0.192157
0.717647 0.247059 0.192157
0.725490 0.247059 0.203922
0.733333 0.254902 0.203922
0.749020 0.262745 0.215686
0.760784 0.266667 0.219608
0.772549 0.278431 0.231373
0.784314 0.282353 0.239216
0.800000 0.286275 0.247059
0.807843 0.294118 0.254902
0.811765 0.301961 0.250980
0.827451 0.309804 0.262745
0.835294 0.317647 0.270588
0.847059 0.321569 0.278431
0.858824 0.321569 0.282353
0.866667 0.329412 0.290196
0.870588 0.329412 0.290196
0.870588 0.329412 0.290196
0.000000 0.000000 0.000000
0.000000 0.000000 0.000000
0.003922 0.003922 0.000000
0.019608 0.015686 0.007843
0.039216 0.015686 0.015686
0.058824 0.027451 0.019608
0.074510 0.035294 0.031373
0.086275 0.047059 0.043137
0.109804 0.054902 0.050980
0.121569 0.058824 0.058824
0.137255 0.066667 0.058824
0.156863 0.074510 0.070588
0.172549 0.078431 0.078431
0.188235 0.078431 0.074510
0.203922 0.082353 0.074510
0.223529 0.090196 0.086275
0.243137 0.094118 0.090196
0.258824 0.098039 0.090196
0.274510 0.098039 0.086275
0.294118 0.101961 0.086275
0.313726 0.105882 0.090196
0.333333 0.105882 0.090196
0.356863 0.109804 0.082353
0.364706 0.113725 0.078431
0.388235 0.113725 0.082353
0.407843 0.117647 0.082353
0.423529 0.117647 0.078431
0.435294 0.121569 0.078431
0.450980 0.121569 0.078431
0.466667 0.125490 0.086275
0.482353 0.129412 0.086275
0.501961 0.141176 0.090196
0.521569 0.145098 0.098039
0.529412 0.152941 0.105882
0.549020 0.152941 0.105882
0.560784 0.164706 0.117647
0.572549 0.172549 0.125490
0.584314 0.176471 0.125490
0.603922 0.188235 0.137255
0.615686 0.192157 0.145098
0.631373 0.196078 0.152941
0.643137 0.203922 0.156863
0.650980 0.211765 0.164706
0.662745 0.215686 0.172549
0.682353 0.227451 0.176471
0.694118 0.231373 0.184314
0.701961 0.239216 0.192157
0.717647 0.247059 0.192157
0.729412 0.250980 0.200000
0.741176 0.262745 0.211765
0.745098 0.258824 0.211765
0.760784 0.274510 0.227451
0.768627 0.274510 0.227451
0.788235 0.286275 0.243137
0.788235 0.286275 0.243137
0.807843 0.298039 0.247059
0.811765 0.301961 0.250980
0.827451 0.309804 0.262745
0.835294 0.317647 0.270588
0.847059 0.321569 0.278431
0.850980 0.325490 0.282353
0.866667 0.329412 0.290196
0.870588 0.329412 0.290196
0.874510 0.333333 0.294118
0.007843 0.015686 0.003922
0.011765 0.019608 0.007843
0.019608 0.019608 0.011765
0.031373 0.027451 0.011765
0.047059 0.027451 0.015686
0.066667 0.035294 0.027451
0.078431 0.039216 0.035294
0.090196 0.050980 0.043137
0.105882 0.062745 0.054902
0.121569 0.066667 0.054902
0.141176 0.070588 0.062745
0.152941 0.078431 0.062745
0.168627 0.086275 0.074510
0.188235 0.090196 0.074510
0.207843 0.094118 0.078431
0.223529 0.090196 0.082353
0.243137 0.094118 0.082353
0.258824 0.105882 0.086275
0.278431 0.109804 0.086275
0.298039 0.113725 0.090196
0.309804 0.113725 0.086275
0.337255 0.113725 0.086275
0.352941 0.117647 0.078431
0.368627 0.117647 0.078431
0.388235 0.121569 0.078431
0.403922 0.117647 0.082353
0.423529 0.121569 0.082353
0.439216 0.125490 0.082353
0.450980 0.129412 0.082353
0.470588 0.133333 0.082353
0.482353 0.137255 0.082353
0.505882 0.145098 0.094118
0.513726 0.149020 0.090196
0.533333 0.156863 0.101961
0.545098 0.160784 0.109804
0.564706 0.168627 0.121569
0.572549 0.172549 0.117647
0.584314 0.184314 0.129412
0.603922 0.188235 0.137255
0.611765 0.196078 0.145098
0.631373 0.200000 0.149020
0.639216 0.207843 0.156863
0.654902 0.215686 0.168627
0.662745 0.223529 0.168627
0.674510 0.231373 0.176471
0.690196 0.235294 0.184314
0.701961 0.239216 0.192157
0.717647 0.247059 0.192157
0.725490 0.254902 0.200000
0.737255 0.258824 0.207843
0.749020 0.270588 0.219608
0.756863 0.270588 0.223529
0.776471 0.282353 0.235294
0.780392 0.286275 0.239216
0.796078 0.294118 0.243137
0.803922 0.301961 0.250980
0.811765 0.301961 0.250980
0.823529 0.313726 0.262745
0.835294 0.317647 0.270588
0.847059 0.321569 0.278431
0.850980 0.325490 0.282353
0.866667 0.329412 0.290196
0.870588 0.337255 0.290196
0.874510 0.333333 0.290196
0.011765 0.039216 0.011765
0.019608 0.039216 0.015686
0.031373 0.039216 0.019608
0.039216 0.035294 0.015686
0.054902 0.043137 0.023529
0.070588 0.050980 0.035294
0.086275 0.054902 0.043137
0.098039 0.058824 0.050980
0.109804 0.066667 0.050980
0.125490 0.070588 0.058824
0.141176 0.082353 0.062745
0.160784 0.086275 0.070588
0.172549 0.090196 0.070588
0.192157 0.094118 0.078431
0.211765 0.098039 0.082353
0.219608 0.098039 0.078431
0.243137 0.105882 0.082353
0.262745 0.109804 0.090196
0.282353 0.113725 0.086275
0.301961 0.117647 0.086275
0.313726 0.117647 0.082353
0.329412 0.117647 0.078431
0.356863 0.121569 0.082353
0.368627 0.125490 0.082353
0.392157 0.125490 0.082353
0.400000 0.125490 0.078431
0.419608 0.129412 0.078431
0.439216 0.133333 0.082353
0.447059 0.137255 0.078431
0.466667 0.141176 0.086275
0.482353 0.137255 0.082353
0.498039 0.149020 0.094118
0.517647 0.156863 0.098039
0.529412 0.164706 0.105882
0.545098 0.168627 0.113725
0.556863 0.176471 0.113725
0.576471 0.184314 0.125490
0.588235 0.188235 0.133333
0.600000 0.192157 0.141176
0.615686 0.200000 0.145098
0.627451 0.203922 0.152941
0.643137 0.211765 0.160784
0.654902 0.223529 0.172549
0.666667 0.227451 0.172549
0.678431 0.235294 0.180392
0.694118 0.239216 0.188235
0.705882 0.243137 0.196078
0.713726 0.250980 0.196078
0.729412 0.258824 0.203922
0.741176 0.270588 0.215686
0.745098 0.266667 0.215686
0.764706 0.278431 0.231373
0.764706 0.278431 0.231373
0.784314 0.290196 0.243137
0.792157 0.290196 0.239216
0.803922 0.301961 0.250980
0.815686 0.305882 0.254902
0.827451 0.317647 0.266667
0.839216 0.321569 0.274510
0.847059 0.329412 0.282353
0.854902 0.329412 0.282353
0.870588 0.337255 0.290196
0.874510 0.341176 0.294118
0.878431 0.337255 0.294118
0.019608 0.058824 0.027451
0.031373 0.058824 0.027451
0.039216 0.058824 0.031373
0.050980 0.054902 0.023529
0.058824 0.058824 0.027451
0.074510 0.062745 0.035294
0.082353 0.062745 0.039216
0.101961 0.074510 0.050980
0.113725 0.078431 0.050980
0.125490 0.082353 0.058824
0.149020 0.090196 0.062745
0.160784 0.094118 0.066667
0.176471 0.098039 0.070588
0.188235 0.098039 0.074510
0.207843 0.101961 0.074510
0.223529 0.105882 0.074510
0.250980 0.117647 0.082353
0.262745 0.117647 0.082353
0.274510 0.117647 0.078431
0.298039 0.125490 0.082353
0.313726 0.125490 0.078431
0.337255 0.125490 0.078431
0.356863 0.129412 0.082353
0.376471 0.133333 0.082353
0.392157 0.133333 0.078431
0.400000 0.137255 0.074510
0.419608 0.137255 0.078431
0.439216 0.141176 0.078431
0.447059 0.145098 0.082353
0.466667 0.149020 0.082353
0.486275 0.149020 0.082353
0.498039 0.156863 0.090196
0.513726 0.164706 0.101961
0.529412 0.168627 0.109804
0.541176 0.176471 0.109804
0.556863 0.180392 0.117647
0.568627 0.188235 0.125490
0.588235 0.196078 0.133333
0.600000 0.200000 0.141176
0.611765 0.207843 0.149020
0.627451 0.211765 0.156863
0.639216 0.215686 0.164706
0.658824 0.227451 0.168627
0.666667 0.235294 0.176471
0.678431 0.239216 0.184314
0.690196 0.247059 0.192157
0.705882 0.250980 0.192157
0.713726 0.250980 0.196078
0.733333 0.262745 0.207843
0.737255 0.266667 0.211765
0.752941 0.274510 0.215686
0.756863 0.278431 0.219608
0.772549 0.290196 0.231373
0.776471 0.294118 0.235294
0.796078 0.301961 0.247059
0.807843 0.305882 0.254902
0.811765 0.309804 0.258824
0.827451 0.317647 0.266667
0.835294 0.325490 0.274510
0.847059 0.329412 0.278431
0.854902 0.329412 0.282353
0.862745 0.337255 0.290196
0.874510 0.341176 0.294118
0.878431 0.345098 0.298039
0.031373 0.070588 0.035294
0.043137 0.070588 0.039216
0.050980 0.074510 0.035294
0.062745 0.074510 0.039216
0.066667 0.074510 0.031373
0.078431 0.078431 0.039216
0.090196 0.078431 0.043137
0.105882 0.090196 0.054902
0.121569 0.086275 0.050980
0.133333 0.094118 0.058824
0.149020 0.098039 0.062745
0.164706 0.098039 0.066667
0.176471 0.105882 0.066667
0.196078 0.105882 0.074510
0.215686 0.109804 0.074510
0.231373 0.121569 0.078431
0.247059 0.121569 0.078431
0.262745 0.121569 0.074510
0.282353 0.125490 0.078431
0.301961 0.129412 0.078431
0.317647 0.137255 0.078431
0.341176 0.137255 0.082353
0.356863 0.137255 0.078431
0.372549 0.149020 0.082353
0.392157 0.145098 0.078431
0.403922 0.149020 0.078431
0.419608 0.149020 0.086275
0.439216 0.152941 0.086275
0.450980 0.156863 0.082353
0.466667 0.160784 0.082353
0.486275 0.160784 0.090196
0.501961 0.168627 0.090196
0.513726 0.172549 0.098039
0.525490 0.176471 0.105882
0.541176 0.184314 0.113725
0.552941 0.188235 0.117647
0.568627 0.196078 0.125490
0.584314 0.203922 0.137255
0.596078 0.203922 0.141176
0.611765 0.211765 0.152941
0.623529 0.219608 0.152941
0.639216 0.223529 0.160784
0.654902 0.235294 0.172549
0.666667 0.235294 0.176471
0.682353 0.247059 0.180392
0.686275 0.250980 0.184314
0.701961 0.258824 0.196078
0.717647 0.262745 0.203922
0.729412 0.266667 0.211765
0.737255 0.278431 0.211765
0.749020 0.278431 0.215686
0.760784 0.282353 0.223529
0.764706 0.286275 0.227451
0.780392 0.298039 0.239216
0.792157 0.298039 0.243137
0.803922 0.309804 0.254902
0.815686 0.313726 0.262745
0.819608 0.321569 0.262745
0.839216 0.329412 0.274510
0.847059 0.337255 0.282353
0.854902 0.337255 0.286275
0.862745 0.337255 0.290196
0.866667 0.341176 0.294118
0.878431 0.345098 0.298039
0.054902 0.086275 0.043137
0.058824 0.090196 0.047059
0.066667 0.090196 0.050980
0.078431 0.090196 0.054902
0.074510 0.086275 0.043137
0.086275 0.094118 0.050980
0.094118 0.094118 0.054902
0.109804 0.098039 0.062745
0.125490 0.101961 0.054902
0.137255 0.105882 0.062745
0.156863 0.105882 0.070588
0.168627 0.113725 0.070588
0.188235 0.117647 0.078431
0.196078 0.117647 0.074510
0.215686 0.121569 0.074510
0.235294 0.125490 0.082353
0.254902 0.129412 0.078431
0.266667 0.137255 0.078431
0.290196 0.145098 0.082353
0.301961 0.137255 0.074510
0.317647 0.137255 0.074510
0.341176 0.149020 0.090196
0.356863 0.149020 0.086275
0.376471 0.152941 0.086275
0.392157 0.152941 0.078431
0.403922 0.156863 0.086275
0.419608 0.156863 0.082353
0.439216 0.160784 0.082353
0.458824 0.164706 0.082353
0.466667 0.164706 0.086275
0.486275 0.168627 0.086275
0.498039 0.176471 0.094118
0.517647 0.176471 0.101961
0.525490 0.184314 0.105882
0.545098 0.188235 0.113725
0.556863 0.192157 0.121569
0.576471 0.203922 0.133333
0.588235 0.207843 0.141176
0.600000 0.211765 0.137255
0.615686 0.219608 0.149020
0.627451 0.223529 0.156863
0.635294 0.231373 0.164706
0.650980 0.239216 0.164706
0.662745 0.243137 0.172549
0.678431 0.247059 0.180392
0.690196 0.254902 0.188235
0.701961 0.258824 0.196078
0.709804 0.266667 0.196078
0.725490 0.270588 0.211765
0.737255 0.278431 0.211765
0.752941 0.282353 0.219608
0.756863 0.286275 0.223529
0.768627 0.290196 0.231373
0.776471 0.298039 0.239216
0.788235 0.305882 0.247059
0.807843 0.313726 0.258824
0.811765 0.317647 0.258824
0.823529 0.325490 0.266667
0.831373 0.333333 0.274510
0.847059 0.337255 0.282353
0.854902 0.337255 0.286275
0.862745 0.345098 0.294118
0.870588 0.345098 0.298039
0.874510 0.349020 0.301961
0.058824 0.101961 0.047059
0.070588 0.101961 0.050980
0.078431 0.101961 0.054902
0.078431 0.101961 0.054902
0.090196 0.105882 0.050980
0.094118 0.101961 0.050980
0.105882 0.109804 0.054902
0.117647 0.109804 0.058824
0.125490 0.113725 0.054902
0.141176 0.117647 0.062745
0.156863 0.121569 0.062745
0.172549 0.125490 0.062745
0.188235 0.125490 0.066667
0.203922 0.129412 0.070588
0.223529 0.141176 0.074510
0.235294 0.145098 0.074510
0.250980 0.137255 0.074510
0.266667 0.145098 0.074510
0.286275 0.149020 0.074510
0.298039 0.149020 0.074510
0.321569 0.152941 0.078431
0.341176 0.156863 0.078431
0.360784 0.160784 0.078431
0.376471 0.160784 0.082353
0.384314 0.160784 0.082353
0.403922 0.164706 0.082353
0.419608 0.164706 0.078431
0.435294 0.168627 0.078431
0.450980 0.172549 0.086275
0.466667 0.172549 0.082353
0.482353 0.176471 0.090196
0.498039 0.180392 0.098039
0.513726 0.192157 0.105882
0.529412 0.196078 0.113725
0.545098 0.200000 0.121569
0.560784 0.203922 0.121569
0.572549 0.211765 0.129412
0.588235 0.215686 0.137255
0.600000 0.219608 0.145098
0.615686 0.227451 0.152941
0.627451 0.231373 0.160784
0.635294 0.239216 0.168627
0.654902 0.243137 0.168627
0.666667 0.254902 0.180392
0.674510 0.254902 0.184314
0.690196 0.258824 0.192157
0.701961 0.266667 0.192157
0.713726 0.278431 0.203922
0.729412 0.278431 0.207843
0.737255 0.286275 0.215686
0.745098 0.286275 0.219608
0.764706 0.294118 0.231373
0.772549 0.301961 0.235294
0.780392 0.305882 0.239216
0.784314 0.309804 0.243137
0.800000 0.317647 0.254902
0.811765 0.317647 0.258824
0.823529 0.329412 0.270588
0.831373 0.333333 0.274510
0.847059 0.337255 0.282353
0.854902 0.345098 0.290196
0.862745 0.345098 0.294118
0.866667 0.349020 0.298039
0.874510 0.349020 0.301961
0.074510 0.117647 0.054902
0.074510 0.117647 0.054902
0.082353 0.113725 0.054902
0.094118 0.117647 0.062745
0.101961 0.117647 0.058824
0.105882 0.121569 0.062745
0.109804 0.121569 0.054902
0.117647 0.121569 0.058824
0.133333 0.129412 0.058824
0.152941 0.129412 0.066667
0.160784 0.133333 0.062745
0.180392 0.137255 0.066667
0.200000 0.137255 0.074510
0.211765 0.145098 0.074510
0.231373 0.149020 0.074510
0.239216 0.152941 0.070588
0.258824 0.152941 0.078431
0.278431 0.156863 0.078431
0.294118 0.156863 0.078431
0.309804 0.160784 0.078431
0.325490 0.164706 0.078431
0.345098 0.168627 0.078431
0.356863 0.168627 0.082353
0.372549 0.168627 0.082353
0.392157 0.172549 0.082353
0.403922 0.176471 0.082353
0.423529 0.180392 0.082353
0.439216 0.180392 0.078431
0.458824 0.184314 0.086275
0.466667 0.184314 0.086275
0.486275 0.188235 0.094118
0.498039 0.192157 0.101961
0.513726 0.200000 0.109804
0.525490 0.203922 0.109804
0.545098 0.207843 0.117647
0.556863 0.211765 0.125490
0.572549 0.215686 0.133333
0.588235 0.227451 0.145098
0.603922 0.231373 0.145098
0.615686 0.239216 0.152941
0.631373 0.243137 0.160784
0.639216 0.243137 0.164706
0.650980 0.247059 0.172549
0.670588 0.258824 0.184314
0.682353 0.262745 0.184314
0.686275 0.266667 0.188235
0.701961 0.274510 0.196078
0.713726 0.278431 0.203922
0.725490 0.282353 0.211765
0.741176 0.290196 0.219608
0.749020 0.298039 0.227451
0.760784 0.301961 0.231373
0.772549 0.301961 0.235294
0.780392 0.309804 0.243137
0.792157 0.317647 0.250980
0.800000 0.325490 0.258824
0.807843 0.325490 0.262745
0.823529 0.329412 0.270588
0.831373 0.337255 0.278431
0.843137 0.345098 0.286275
0.858824 0.349020 0.294118
0.862745 0.352941 0.298039
0.870588 0.352941 0.301961
0.878431 0.352941 0.305882
0.082353 0.133333 0.062745
0.086275 0.133333 0.054902
0.098039 0.133333 0.058824
0.098039 0.133333 0.058824
0.109804 0.137255 0.066667
0.113725 0.133333 0.054902
0.125490 0.137255 0.062745
0.129412 0.137255 0.054902
0.141176 0.137255 0.054902
0.152941 0.145098 0.062745
0.172549 0.149020 0.062745
0.184314 0.152941 0.070588
0.203922 0.156863 0.070588
0.219608 0.160784 0.070588
0.231373 0.160784 0.066667
0.243137 0.164706 0.070588
0.262745 0.168627 0.074510
0.274510 0.164706 0.070588
0.294118 0.168627 0.078431
0.313726 0.172549 0.078431
0.321569 0.176471 0.074510
0.341176 0.176471 0.078431
0.360784 0.180392 0.078431
0.368627 0.184314 0.082353
0.400000 0.188235 0.086275
0.407843 0.188235 0.082353
0.423529 0.188235 0.078431
0.443137 0.192157 0.082353
0.450980 0.196078 0.086275
0.470588 0.200000 0.086275
0.486275 0.196078 0.090196
0.498039 0.200000 0.098039
0.513726 0.211765 0.109804
0.529412 0.215686 0.117647
0.541176 0.219608 0.125490
0.560784 0.223529 0.125490
0.572549 0.227451 0.133333
0.588235 0.235294 0.141176
0.600000 0.239216 0.149020
0.615686 0.243137 0.156863
0.623529 0.247059 0.160784
0.639216 0.250980 0.160784
0.654902 0.262745 0.172549
0.666667 0.266667 0.180392
0.682353 0.270588 0.188235
0.686275 0.274510 0.192157
0.698039 0.282353 0.196078
0.713726 0.286275 0.203922
0.729412 0.290196 0.211765
0.737255 0.298039 0.219608
0.752941 0.301961 0.227451
0.760784 0.309804 0.235294
0.768627 0.309804 0.239216
0.784314 0.313726 0.247059
0.792157 0.321569 0.254902
0.800000 0.325490 0.258824
0.815686 0.333333 0.270588
0.819608 0.337255 0.274510
0.835294 0.341176 0.282353
0.839216 0.345098 0.286275
0.850980 0.352941 0.286275
0.862745 0.352941 0.290196
0.874510 0.356863 0.298039
0.878431 0.360784 0.301961
0.094118 0.149020 0.058824
0.101961 0.149020 0.062745
0.101961 0.149020 0.062745
0.117647 0.152941 0.070588
0.113725 0.152941 0.058824
0.125490 0.156863 0.066667
0.129412 0.149020 0.058824
0.137255 0.152941 0.062745
0.145098 0.152941 0.058824
0.156863 0.156863 0.062745
0.176471 0.160784 0.062745
0.188235 0.164706 0.062745
0.203922 0.164706 0.066667
0.227451 0.172549 0.070588
0.239216 0.176471 0.074510
0.247059 0.180392 0.070588
0.270588 0.176471 0.066667
0.278431 0.176471 0.070588
0.298039 0.180392 0.070588
0.317647 0.184314 0.074510
0.329412 0.192157 0.082353
0.345098 0.192157 0.078431
0.364706 0.192157 0.078431
0.376471 0.200000 0.086275
0.396078 0.196078 0.082353
0.407843 0.200000 0.078431
0.423529 0.200000 0.082353
0.439216 0.200000 0.078431
0.454902 0.207843 0.086275
0.470588 0.207843 0.094118
0.486275 0.207843 0.090196
0.501961 0.211765 0.098039
0.513726 0.219608 0.105882
0.525490 0.223529 0.113725
0.541176 0.227451 0.121569
0.560784 0.231373 0.129412
0.572549 0.235294 0.137255
0.584314 0.243137 0.137255
0.600000 0.247059 0.145098
0.611765 0.250980 0.152941
0.623529 0.254902 0.156863
0.639216 0.262745 0.168627
0.654902 0.266667 0.176471
0.666667 0.274510 0.180392
0.674510 0.274510 0.184314
0.690196 0.278431 0.192157
0.701961 0.286275 0.200000
0.709804 0.294118 0.207843
0.729412 0.294118 0.215686
0.737255 0.301961 0.223529
0.749020 0.309804 0.231373
0.760784 0.309804 0.235294
0.768627 0.317647 0.243137
0.780392 0.321569 0.250980
0.796078 0.325490 0.258824
0.800000 0.329412 0.262745
0.815686 0.341176 0.266667
0.819608 0.345098 0.270588
0.831373 0.349020 0.278431
0.843137 0.352941 0.282353
0.854902 0.356863 0.290196
0.858824 0.360784 0.294118
0.874510 0.364706 0.301961
0.878431 0.360784 0.301961
0.105882 0.160784 0.062745
0.105882 0.160784 0.062745
0.117647 0.164706 0.070588
0.113725 0.164706 0.062745
0.129412 0.168627 0.070588
0.129412 0.160784 0.066667
0.145098 0.168627 0.066667
0.149020 0.164706 0.066667
0.160784 0.172549 0.066667
0.172549 0.172549 0.070588
0.176471 0.172549 0.062745
0.196078 0.176471 0.062745
0.203922 0.176471 0.062745
0.227451 0.184314 0.066667
0.239216 0.188235 0.062745
0.254902 0.188235 0.070588
0.270588 0.188235 0.066667
0.286275 0.196078 0.074510
0.301961 0.196078 0.078431
0.317647 0.196078 0.074510
0.337255 0.200000 0.074510
0.345098 0.203922 0.078431
0.360784 0.200000 0.074510
0.380392 0.203922 0.074510
0.396078 0.203922 0.078431
0.407843 0.211765 0.082353
0.427451 0.215686 0.082353
0.443137 0.211765 0.078431
0.454902 0.219608 0.086275
0.470588 0.215686 0.090196
0.482353 0.223529 0.098039
0.501961 0.223529 0.098039
0.517647 0.231373 0.105882
0.529412 0.235294 0.113725
0.541176 0.239216 0.121569
0.560784 0.243137 0.129412
0.576471 0.247059 0.137255
0.584314 0.247059 0.141176
0.596078 0.254902 0.149020
0.611765 0.258824 0.156863
0.623529 0.266667 0.160784
0.639216 0.270588 0.168627
0.650980 0.274510 0.176471
0.666667 0.282353 0.184314
0.678431 0.286275 0.192157
0.690196 0.290196 0.200000
0.705882 0.298039 0.200000
0.713726 0.305882 0.207843
0.729412 0.301961 0.211765
0.737255 0.309804 0.219608
0.749020 0.317647 0.227451
0.760784 0.321569 0.235294
0.768627 0.329412 0.243137
0.780392 0.329412 0.247059
0.788235 0.329412 0.250980
0.796078 0.337255 0.258824
0.811765 0.345098 0.266667
0.819608 0.345098 0.270588
0.831373 0.356863 0.282353
0.843137 0.360784 0.290196
0.854902 0.364706 0.294118
0.862745 0.364706 0.298039
0.878431 0.368627 0.305882
0.878431 0.372549 0.298039
0.113725 0.176471 0.070588
0.125490 0.180392 0.078431
0.125490 0.184314 0.070588
0.133333 0.184314 0.074510
0.129412 0.180392 0.070588
0.141176 0.180392 0.074510
0.149020 0.184314 0.070588
0.160784 0.184314 0.074510
0.164706 0.184314 0.066667
0.172549 0.184314 0.062745
0.184314 0.188235 0.066667
0.203922 0.192157 0.070588
0.211765 0.192157 0.066667
0.231373 0.196078 0.066667
0.250980 0.200000 0.066667
0.262745 0.203922 0.074510
0.278431 0.203922 0.074510
0.286275 0.207843 0.070588
0.305882 0.211765 0.070588
0.321569 0.207843 0.074510
0.341176 0.211765 0.074510
0.352941 0.211765 0.070588
0.372549 0.215686 0.074510
0.388235 0.219608 0.082353
0.396078 0.215686 0.074510
0.407843 0.219608 0.070588
0.427451 0.223529 0.078431
0.443137 0.223529 0.078431
0.458824 0.231373 0.086275
0.474510 0.227451 0.090196
0.486275 0.235294 0.098039
0.501961 0.243137 0.109804
0.517647 0.243137 0.109804
0.529412 0.243137 0.113725
0.541176 0.247059 0.121569
0.560784 0.250980 0.129412
0.572549 0.254902 0.137255
0.588235 0.262745 0.145098
0.600000 0.266667 0.152941
0.611765 0.270588 0.160784
0.627451 0.274510 0.168627
0.639216 0.282353 0.176471
0.654902 0.286275 0.184314
0.662745 0.290196 0.180392
0.678431 0.294118 0.188235
0.690196 0.298039 0.196078
0.701961 0.301961 0.203922
0.713726 0.305882 0.207843
0.725490 0.309804 0.215686
0.733333 0.317647 0.223529
0.749020 0.321569 0.231373
