dist/Lightroom_AI_v2.0.0/calibration/preset.cube
# Created by Lightroom AI Studio 2.0 Color Engine
TITLE "preset_hald_unvignetted"
LUT_3D_SIZE 4
DOMAIN_MIN 0.0 0.0 0.0
DOMAIN_MAX 1.0 1.0 1.0
0.000000 0.000000 0.000000
0.181521 0.000000 0.000000
0.580499 0.000000 0.000000
0.818860 0.000000 0.000000
0.000000 0.260044 0.073060
0.249561 0.266712 0.000000
0.609567 0.264530 0.000000
0.825528 0.411246 0.180499
0.000000 0.649226 0.153460
0.000000 0.643717 0.000000
0.610361 0.657420 0.000000
0.847990 0.689189 0.000000
0.000000 0.875212 0.297841
0.058717 0.868177 0.009522
0.600916 0.891112 0.000000
0.846860 0.878859 0.243900
0.000000 0.000000 0.000000
0.095644 0.047364 0.018143
0.491875 0.112230 0.000000
0.677577 0.376043 0.169665
0.188510 0.155871 0.169665
0.210391 0.218189 0.252110
0.582895 0.177539 0.252689
0.802228 0.343954 0.399878
0.000000 0.607065 0.000000
0.000000 0.652430 0.248890
0.608454 0.655390 0.000000
0.840970 0.682841 0.314855
0.496529 0.846891 0.250065
0.267964 0.868086 0.464073
0.596155 0.871809 0.282475
0.847791 0.869093 0.519341
0.000000 0.000000 0.429999
0.000000 0.000000 0.517662
0.445579 0.000000 0.515663
0.668544 0.197498 0.616007
0.000000 0.000000 0.625376
0.000000 0.067567 0.670985
0.497078 0.000000 0.689174
0.758862 0.000000 0.744640
0.217624 0.494392 0.639078
0.000000 0.497856 0.684474
0.592096 0.597375 0.655787
0.792248 0.662715 0.710491
0.686030 0.808911 0.764446
0.457053 0.862150 0.828946
0.675639 0.850629 0.746456
0.860700 0.854795 0.793530
0.000000 0.000000 0.876051
0.000000 0.000000 0.895521
0.273518 0.000000 0.903624
0.730358 0.000000 0.895033
0.000000 0.000000 0.915084
0.000000 0.000000 0.920363
0.374899 0.000000 0.926314
0.702296 0.000000 0.929854
0.216464 0.446311 0.901503
0.000000 0.439506 0.909010
0.508690 0.501549 0.907607
0.773480 0.520394 0.911330
0.085756 0.744976 0.918669
0.000000 0.721248 0.925689
0.537453 0.786252 0.907286
0.871214 0.868711 0.891814
