dist/Lightroom_AI_v2.0.0/calibration/preset.cube
# Created by Lightroom AI Studio 2.0 Color Engine
TITLE "preset_hald_unvignetted"
LUT_3D_SIZE 8
DOMAIN_MIN 0.0 0.0 0.0
DOMAIN_MAX 1.0 1.0 1.0
0.000000 0.000000 0.000000
0.000000 0.000000 0.000000
0.122744 0.000000 0.000000
0.293919 0.000000 0.000000
0.470176 0.000000 0.000000
0.631830 0.000000 0.000000
0.772641 0.000000 0.000000
0.818860 0.000000 0.000000
0.000000 0.000000 0.000000
0.000000 0.000000 0.000000
0.120394 0.077485 0.000000
0.299321 0.107408 0.000000
0.476524 0.079698 0.000000
0.638941 0.000000 0.000000
0.779950 0.000000 0.000000
0.816190 0.118791 0.001923
0.000000 0.197101 0.057588
0.000000 0.202899 0.000000
0.190997 0.202426 0.000000
0.332006 0.232303 0.000000
0.495247 0.227390 0.000000
0.654902 0.194003 0.000000
0.792035 0.084031 0.000000
0.823987 0.355535 0.151675
0.000000 0.378378 0.097704
0.000000 0.384085 0.000000
0.152544 0.369451 0.000000
0.359976 0.386511 0.000000
0.532357 0.403586 0.000000
0.670542 0.386694 0.000000
0.795880 0.389395 0.000000
0.827695 0.502693 0.208728
0.000000 0.545266 0.131716
0.000000 0.549386 0.061555
0.000000 0.542687 0.000000
0.290898 0.536919 0.000000
0.517342 0.556390 0.000000
0.694896 0.563119 0.000000
0.810162 0.542107 0.000000
0.844388 0.611322 0.000000
0.000000 0.698573 0.165576
0.000000 0.700633 0.112139
0.000000 0.691203 0.000000
0.000000 0.689601 0.000000
0.438117 0.689998 0.000000
0.649714 0.699641 0.000000
0.811307 0.681620 0.000000
0.839185 0.726787 0.000000
0.000000 0.815473 0.213336
0.000000 0.815915 0.191455
0.000000 0.807004 0.000000
0.000000 0.802426 0.000000
0.304555 0.808850 0.000000
0.555566 0.812207 0.000000
0.756771 0.806271 0.000000
0.757092 0.845594 0.000000
0.000000 0.875212 0.297841
0.000000 0.871244 0.257939
0.000000 0.867567 0.138827
0.238560 0.873457 0.000000
0.449149 0.889174 0.000000
0.674815 0.887205 0.000000
0.852689 0.859663 0.000000
0.846860 0.878859 0.243900
0.000000 0.000000 0.000000
0.000000 0.000000 0.000000
0.000000 0.000000 0.000000
0.169375 0.122911 0.000000
0.344884 0.197345 0.000000
0.519722 0.249744 0.000000
0.695338 0.271672 0.000000
0.669993 0.388800 0.000000
0.007187 0.000473 0.000000
0.000000 0.000000 0.000000
0.146227 0.000000 0.000000
0.308980 0.000000 0.000000
0.475898 0.000000 0.000000
0.628412 0.000000 0.000000
0.766857 0.000000 0.000000
0.804288 0.000000 0.169772
0.138460 0.126284 0.000000
0.000000 0.190341 0.057298
0.172427 0.192966 0.000000
0.326284 0.187106 0.000000
0.484337 0.175708 0.000000
0.638697 0.127932 0.000000
0.777737 0.000000 0.000000
0.815045 0.335515 0.225956
0.205097 0.293324 0.000000
0.000000 0.367407 0.071672
0.000000 0.367575 0.000000
0.344976 0.381323 0.000000
0.528237 0.377722 0.000000
0.657694 0.381460 0.000000
0.786969 0.383978 0.076127
0.819654 0.499275 0.280354
0.192660 0.475425 0.000000
0.000000 0.538582 0.079103
0.000000 0.537697 0.000000
0.252979 0.536339 0.000000
0.508400 0.556680 0.000000
0.696574 0.555230 0.000000
0.804334 0.541283 0.000000
0.838499 0.609476 0.168719
0.000000 0.658763 0.000000
0.000000 0.696880 0.095995
0.000000 0.691920 0.000000
0.000000 0.691402 0.000000
0.425803 0.690486 0.000000
0.644388 0.703517 0.000000
0.813169 0.680095 0.000000
0.840345 0.725231 0.000000
0.000000 0.788266 0.000000
0.000000 0.817746 0.161120
0.000000 0.810620 0.000000
0.000000 0.802335 0.000000
0.282322 0.810529 0.000000
0.549630 0.813703 0.000000
0.751476 0.811215 0.000000
0.760220 0.843702 0.000000
0.444556 0.864271 0.000000
0.000000 0.873320 0.350820
0.059846 0.866850 0.281651
0.266300 0.868025 0.141100
0.453605 0.880812 0.000000
0.669688 0.883452 0.000000
0.849805 0.859449 0.073747
0.847639 0.875731 0.340673
0.000000 0.000000 0.000000
0.000000 0.000000 0.000000
0.005280 0.004791 0.000000
0.195834 0.109514 0.000000
0.368902 0.160632 0.000000
0.541299 0.184970 0.000000
0.710567 0.175372 0.000000
0.676204 0.379156 0.066407
0.100267 0.000000 0.112139
0.000000 0.000000 0.215061
0.139498 0.000000 0.204578
0.292561 0.000000 0.217624
0.459281 0.000000 0.202991
0.611124 0.000000 0.182055
0.751736 0.000000 0.174426
0.791928 0.000000 0.328298
0.158434 0.098390 0.107317
0.000000 0.123247 0.202701
0.154833 0.162234 0.190906
0.318868 0.146227 0.184665
0.479332 0.099168 0.183871
0.631251 0.000000 0.182116
0.768109 0.000000 0.183337
0.804562 0.283894 0.345220
0.149599 0.310124 0.000000
0.000000 0.377966 0.278843
0.000000 0.374716 0.180438
0.341299 0.374502 0.096345
0.509102 0.367681 0.199527
0.646983 0.382437 0.247898
0.777478 0.379416 0.262333
0.806989 0.498360 0.408301
0.000000 0.489189 0.000000
0.000000 0.552316 0.267353
0.000000 0.546624 0.186130
0.151476 0.539879 0.000000
0.506874 0.554086 0.000000
0.695842 0.549966 0.052979
0.792477 0.547250 0.269612
0.823117 0.614527 0.383520
0.000000 0.662287 0.000000
0.000000 0.706752 0.264363
0.000000 0.700587 0.202136
0.000000 0.688472 0.000000
0.339605 0.700847 0.000000
0.648005 0.701396 0.000000
0.815290 0.679026 0.000000
0.841642 0.722988 0.159823
0.000000 0.792187 0.000000
0.000000 0.826154 0.237110
0.000000 0.818631 0.186542
0.000000 0.805341 0.000000
0.074098 0.811582 0.000000
0.504402 0.823835 0.000000
0.751232 0.812818 0.000000
0.766445 0.839597 0.000000
0.490089 0.851392 0.141619
0.000000 0.876661 0.476051
0.192370 0.869642 0.430121
0.316564 0.863432 0.358022
0.466865 0.869474 0.244388
0.665003 0.876204 0.196811
0.845823 0.857908 0.308782
0.847837 0.870848 0.474266
0.000000 0.000000 0.000000
0.000000 0.089006 0.175601
0.000000 0.022110 0.183597
0.208591 0.000000 0.180606
0.386282 0.000000 0.145602
0.551659 0.000000 0.128176
0.710506 0.000000 0.113741
0.682383 0.361044 0.300114
0.172259 0.000000 0.298054
0.000000 0.000000 0.396094
0.137560 0.000000 0.393927
0.270741 0.000000 0.393545
0.436866 0.000000 0.397101
0.594064 0.000000 0.392554
0.744259 0.000000 0.378485
0.788891 0.000000 0.499626
0.128908 0.000000 0.311254
0.000000 0.086030 0.385687
0.000000 0.091600 0.388266
0.275059 0.042756 0.391379
0.458320 0.000000 0.387198
0.607874 0.000000 0.378332
0.751247 0.000000 0.370886
0.790753 0.129244 0.477699
0.207080 0.256168 0.303395
0.000000 0.245365 0.389425
0.000000 0.275517 0.387778
0.321111 0.329229 0.373861
0.483055 0.326711 0.371145
0.634989 0.324468 0.382422
0.767071 0.324468 0.391974
0.795636 0.451926 0.504204
0.149935 0.489647 0.272725
0.000000 0.531945 0.485435
0.000000 0.546593 0.471015
0.228016 0.540337 0.367056
0.502129 0.539406 0.300908
0.672129 0.541344 0.397726
0.772412 0.560586 0.467506
0.799298 0.629633 0.564752
0.000000 0.670100 0.268803
0.000000 0.715358 0.504555
0.000000 0.713756 0.461051
0.000000 0.696696 0.350103
0.341619 0.687144 0.213336
0.652369 0.694530 0.225086
0.813123 0.676051 0.307362
0.838468 0.719036 0.411536
0.000000 0.803693 0.265446
0.000000 0.835828 0.453346
0.000000 0.830457 0.413275
0.000000 0.815854 0.322026
0.164309 0.803815 0.171862
0.475746 0.816342 0.000000
0.759121 0.808194 0.000000
0.772427 0.834012 0.246784
0.527565 0.836042 0.418570
0.257542 0.881239 0.630014
0.317830 0.874434 0.597055
0.399298 0.864042 0.543481
0.498497 0.858701 0.478126
0.662974 0.864927 0.434806
0.839384 0.854871 0.492027
0.845319 0.866209 0.608103
0.016373 0.000000 0.276555
0.000000 0.090623 0.377966
0.000000 0.000000 0.380331
0.092210 0.000000 0.382116
0.351736 0.000000 0.380545
0.531563 0.000000 0.368399
0.694270 0.000000 0.352300
0.674495 0.242924 0.464439
0.199908 0.000000 0.488869
0.000000 0.000000 0.566934
0.138231 0.000000 0.567910
0.269642 0.000000 0.570443
0.396445 0.000000 0.577951
0.565316 0.000000 0.578424
0.723873 0.000000 0.581109
0.769284 0.000000 0.672786
0.000000 0.000000 0.499565
0.000000 0.012741 0.558160
0.000000 0.000000 0.564721
0.194308 0.000000 0.571939
0.403876 0.000000 0.578607
0.584176 0.000000 0.578988
0.736553 0.000000 0.574334
0.777661 0.000000 0.650248
0.157733 0.204395 0.503609
0.000000 0.230610 0.560494
0.000000 0.248493 0.564141
0.246967 0.269612 0.568093
0.442329 0.272328 0.575906
0.613901 0.226947 0.573007
0.752239 0.161563 0.554467
0.785779 0.309865 0.616876
0.221347 0.397665 0.506828
0.000000 0.388556 0.573220
0.000000 0.406561 0.574273
0.246342 0.438239 0.568063
0.487709 0.494606 0.552728
0.641001 0.499702 0.554833
0.761135 0.514839 0.569833
0.790402 0.587518 0.637644
0.183703 0.672602 0.576669
0.000000 0.667765 0.661250
0.000000 0.679210 0.659144
0.198459 0.695232 0.637079
0.409110 0.684321 0.531838
0.650797 0.679683 0.484428
0.783719 0.678416 0.585397
0.810513 0.720760 0.657664
0.000000 0.815030 0.552300
0.000000 0.833082 0.676951
0.000000 0.834653 0.658274
0.000000 0.829282 0.596277
0.287480 0.808652 0.486992
0.484245 0.799634 0.381094
0.764324 0.800916 0.401328
0.785748 0.822919 0.513588
0.614115 0.816999 0.642924
0.354742 0.879591 0.779812
0.418448 0.877546 0.764218
0.500786 0.869642 0.727382
0.576394 0.855726 0.670573
0.669642 0.852369 0.627283
0.830823 0.851438 0.653147
0.855497 0.858396 0.730022
0.000000 0.000000 0.507103
0.000000 0.000000 0.585946
0.000000 0.000000 0.587793
0.000000 0.000000 0.589319
0.271595 0.000000 0.590814
0.496162 0.000000 0.586786
0.681437 0.000000 0.580774
0.656962 0.188403 0.680323
0.196811 0.000000 0.668086
0.000000 0.000000 0.713542
0.088228 0.000000 0.717769
0.258671 0.000000 0.721569
0.386023 0.000000 0.728725
0.507118 0.000000 0.739467
0.685161 0.000000 0.735210
0.711971 0.000000 0.798764
0.000000 0.000000 0.679225
0.000000 0.000000 0.709331
0.000000 0.000000 0.715602
0.028016 0.000000 0.723217
0.342077 0.000000 0.731823
0.524895 0.000000 0.737163
0.701747 0.000000 0.735775
0.728923 0.000000 0.789441
0.000000 0.159380 0.686137
0.000000 0.210437 0.709834
0.000000 0.219486 0.713893
0.176608 0.225788 0.719570
0.385763 0.228504 0.728222
0.558114 0.214267 0.736217
0.725246 0.131548 0.732967
0.755932 0.265049 0.776303
0.192065 0.371572 0.686091
0.000000 0.372183 0.716838
0.000000 0.385977 0.718349
0.211658 0.408881 0.717632
0.435248 0.443153 0.720241
0.600717 0.458244 0.726452
0.747402 0.416205 0.715679
0.780606 0.483711 0.749599
0.206485 0.534905 0.691066
0.000000 0.515999 0.731106
0.000000 0.527337 0.730510
0.175982 0.549844 0.724788
0.439460 0.589471 0.713695
0.639490 0.643091 0.698207
0.758938 0.653742 0.703227
0.794812 0.696193 0.741955
0.206210 0.787640 0.749111
0.000000 0.770855 0.785916
0.000000 0.779904 0.784543
0.192065 0.794553 0.776699
0.427634 0.805920 0.753841
0.579110 0.790860 0.673747
0.766674 0.788098 0.648051
0.808789 0.808469 0.710735
0.701701 0.802106 0.812467
0.293324 0.818677 0.856199
0.389685 0.831769 0.852461
0.518807 0.848768 0.844800
0.640986 0.857877 0.827787
0.720409 0.848341 0.781018
0.823682 0.848371 0.770047
0.860212 0.854551 0.819654
0.000000 0.000000 0.732280
0.000000 0.000000 0.769039
0.000000 0.000000 0.771252
0.000000 0.000000 0.773175
0.145251 0.000000 0.775464
0.425635 0.000000 0.778912
0.639673 0.000000 0.777173
0.582742 0.208942 0.818967
0.175540 0.000000 0.814694
0.000000 0.000000 0.832654
0.000000 0.000000 0.835416
0.229969 0.000000 0.839200
0.365972 0.000000 0.844312
0.462684 0.000000 0.854719
0.608957 0.000000 0.857542
0.625727 0.000000 0.880949
0.000000 0.000000 0.820310
0.000000 0.000000 0.829816
0.000000 0.000000 0.833188
0.000000 0.000000 0.838315
0.278935 0.000000 0.844678
0.462562 0.000000 0.850797
0.627817 0.000000 0.853666
0.642817 0.000000 0.873716
0.000000 0.126864 0.816373
0.000000 0.182864 0.824781
0.000000 0.186496 0.827573
0.115984 0.187991 0.832059
0.342550 0.190555 0.838437
0.502571 0.190860 0.845151
0.651835 0.150744 0.848249
0.669474 0.327398 0.864775
0.134524 0.355627 0.815747
0.000000 0.356725 0.828229
0.000000 0.365484 0.828473
0.200717 0.381491 0.828611
0.398627 0.404181 0.831006
0.551141 0.428351 0.834852
0.686961 0.426093 0.839063
0.711864 0.518563 0.854017
0.238972 0.507652 0.813596
0.000000 0.486763 0.830854
0.000000 0.498070 0.830167
0.234836 0.521950 0.827115
0.440848 0.560769 0.823285
0.604425 0.605035 0.822339
0.729488 0.623392 0.826551
0.761044 0.667918 0.843702
0.218753 0.644144 0.818006
0.000000 0.617533 0.842313
0.000000 0.626978 0.840894
0.170245 0.646998 0.835874
0.431434 0.679484 0.828290
0.617426 0.720684 0.818860
0.763745 0.764324 0.807996
0.807462 0.784421 0.825071
0.705745 0.754498 0.867720
0.466316 0.705623 0.889372
0.508400 0.717479 0.887785
0.577005 0.738872 0.884642
0.658534 0.768643 0.880385
0.741741 0.803479 0.874403
0.832197 0.841962 0.866545
0.858503 0.854093 0.880507
0.000000 0.000000 0.876051
0.000000 0.000000 0.892668
0.000000 0.000000 0.894514
0.000000 0.000000 0.898207
0.078965 0.000000 0.903151
0.351186 0.000000 0.903761
0.552102 0.000000 0.901595
0.730358 0.000000 0.895033
0.139864 0.000000 0.916091
0.000000 0.000000 0.923232
0.000000 0.000000 0.925216
0.192462 0.000000 0.928344
0.296651 0.000000 0.933394
0.426673 0.000000 0.936324
0.533547 0.000000 0.938293
0.680568 0.000000 0.935180
0.000000 0.000000 0.918730
0.000000 0.000000 0.921248
0.000000 0.000000 0.922972
0.000000 0.000000 0.925505
0.234684 0.000000 0.928100
0.408484 0.000000 0.930007
0.559640 0.000000 0.931395
0.695888 0.000000 0.931334
0.000000 0.113375 0.909758
0.000000 0.158938 0.913649
0.000000 0.159197 0.914794
0.096223 0.155947 0.916716
0.311360 0.148302 0.919127
0.455329 0.139193 0.921553
0.591882 0.103288 0.924102
0.717388 0.000000 0.926192
0.122225 0.337881 0.903609
0.000000 0.335027 0.909651
0.000000 0.340673 0.909895
0.200198 0.350713 0.910506
0.373342 0.367102 0.911574
0.510552 0.388113 0.912779
0.637201 0.399374 0.914763
0.748409 0.372274 0.918105
0.256275 0.495567 0.901152
0.000000 0.468727 0.910704
0.000000 0.478294 0.909865
0.257618 0.498466 0.908202
0.429496 0.530144 0.906538
0.573129 0.566354 0.905455
0.693019 0.591806 0.905379
0.786557 0.584283 0.908064
0.312825 0.626627 0.902449
0.000000 0.587366 0.916396
0.000000 0.598199 0.914809
0.243000 0.622415 0.911009
0.452155 0.659510 0.906264
0.612284 0.703029 0.901869
0.748196 0.745083 0.898680
0.828565 0.761013 0.898573
0.085756 0.744976 0.918669
0.000000 0.708064 0.930129
0.000000 0.716396 0.927306
0.000000 0.733898 0.921660
0.377234 0.762539 0.913329
0.607996 0.799496 0.904280
0.791669 0.845151 0.895735
0.871214 0.868711 0.891814
