dist/Lightroom_AI_v2.0.0/calibration/preset.cube
# Created by Lightroom AI Studio 2.0 Color Engine
TITLE "preset_hald_unvignetted"
LUT_3D_SIZE 64
DOMAIN_MIN 0.0 0.0 0.0
DOMAIN_MAX 1.0 1.0 1.0
0.000000 0.000000 0.000000
0.000000 0.000000 0.000000
0.000000 0.000000 0.000000
0.000000 0.000000 0.000000
0.000000 0.000000 0.000000
0.000000 0.000000 0.000000
0.000000 0.000000 0.000000
0.000000 0.000000 0.000000
0.000000 0.000000 0.000000
0.000000 0.000000 0.000000
0.000000 0.000000 0.000000
0.000000 0.000000 0.000000
0.000000 0.000000 0.000000
0.000000 0.000000 0.000000
0.000000 0.000000 0.000000
0.053605 0.000000 0.002396
0.083619 0.000000 0.001923
0.103502 0.000000 0.000000
0.122744 0.000000 0.000000
0.142412 0.000000 0.000000
0.161990 0.000000 0.000000
0.181521 0.000000 0.000000
0.200000 0.000000 0.000000
0.218921 0.000000 0.000000
0.237461 0.000000 0.000000
0.255955 0.000000 0.000000
0.274174 0.000000 0.000000
0.293919 0.000000 0.000000
0.313909 0.000000 0.000000
0.334051 0.000000 0.000000
0.352880 0.000000 0.000000
0.373205 0.000000 0.000000
0.395026 0.000000 0.000000
0.414099 0.000000 0.000000
0.432883 0.000000 0.000000
0.451774 0.000000 0.000000
0.470176 0.000000 0.000000
0.489082 0.000000 0.000000
0.507439 0.000000 0.000000
0.526162 0.000000 0.000000
0.544594 0.000000 0.000000
0.562753 0.000000 0.000000
0.580499 0.000000 0.000000
0.598001 0.000000 0.000000
0.614969 0.000000 0.000000
0.631830 0.000000 0.000000
0.648203 0.000000 0.000000
0.664607 0.000000 0.000000
0.680812 0.000000 0.000000
0.696620 0.000000 0.000000
0.711986 0.000000 0.000000
0.727489 0.000000 0.000000
0.742687 0.000000 0.000000
0.759045 0.000000 0.000000
0.772641 0.000000 0.000000
0.785214 0.000000 0.000000
0.796811 0.000000 0.000000
0.808011 0.000000 0.000000
0.818738 0.000000 0.000000
0.828382 0.000000 0.000000
0.837369 0.000000 0.000000
0.850431 0.000000 0.000000
0.865217 0.000000 0.000000
0.818860 0.000000 0.000000
0.000000 0.000000 0.000000
0.000000 0.000000 0.000000
0.000000 0.000000 0.000000
0.000000 0.000000 0.000000
0.000000 0.000000 0.000000
0.000000 0.000000 0.000000
0.000000 0.000000 0.000000
0.000000 0.000000 0.000000
0.000000 0.000000 0.000000
0.000000 0.000000 0.000000
0.000000 0.000000 0.000000
0.000000 0.000000 0.000000
0.000000 0.000000 0.000000
0.000000 0.000000 0.000000
0.030457 0.000000 0.000473
0.072679 0.000000 0.000000
0.092943 0.000000 0.000000
0.111940 0.000000 0.000000
0.131243 0.000000 0.000000
0.150744 0.000000 0.000000
0.169482 0.000000 0.000000
0.187991 0.000000 0.000000
0.205692 0.000000 0.000000
0.223789 0.000000 0.000000
0.242084 0.000000 0.000000
0.260182 0.000000 0.000000
0.278904 0.000000 0.000000
0.298558 0.000000 0.000000
0.318517 0.000000 0.000000
0.338460 0.000000 0.000000
0.357702 0.000000 0.000000
0.377554 0.000000 0.000000
0.399313 0.000000 0.000000
0.418341 0.000000 0.000000
0.436988 0.000000 0.000000
0.455283 0.000000 0.000000
0.474159 0.000000 0.000000
0.492607 0.000000 0.000000
0.510704 0.000000 0.000000
0.529473 0.000000 0.000000
0.547906 0.000000 0.000000
0.565835 0.000000 0.000000
0.583200 0.000000 0.000000
0.600702 0.000000 0.000000
0.617456 0.000000 0.000000
0.634180 0.000000 0.000000
0.650477 0.000000 0.000000
0.666529 0.000000 0.000000
0.682597 0.000000 0.000000
0.698436 0.000000 0.000000
0.713634 0.000000 0.000000
0.729000 0.000000 0.000000
0.744030 0.000000 0.000000
0.760174 0.000000 0.000000
0.773846 0.000000 0.000000
0.786236 0.000000 0.000000
0.797681 0.000000 0.000000
0.808957 0.000000 0.000000
0.819623 0.000000 0.000000
0.829175 0.000000 0.000000
0.838071 0.000000 0.000000
0.851194 0.000000 0.000000
0.865583 0.000000 0.000000
0.818891 0.000000 0.011353
0.000000 0.000000 0.000000
0.000000 0.000000 0.000000
0.000000 0.000000 0.000000
0.000000 0.000000 0.000000
0.000000 0.000000 0.000000
0.000000 0.000000 0.000000
0.000000 0.000000 0.000000
0.000000 0.000000 0.000000
0.000000 0.000000 0.000000
0.000000 0.000000 0.000000
0.000000 0.000000 0.000000
0.000000 0.000000 0.000000
0.000000 0.000000 0.000000
0.000000 0.000000 0.000000
0.048707 0.000000 0.000000
0.080125 0.000000 0.000000
0.098497 0.000000 0.000000
0.117357 0.000000 0.000000
0.136202 0.000000 0.000000
0.154650 0.000000 0.000000
0.172778 0.000000 0.000000
0.190860 0.000000 0.000000
0.208545 0.000000 0.000000
0.226947 0.000000 0.000000
0.245136 0.000000 0.000000
0.263844 0.000000 0.000000
0.282765 0.000000 0.000000
0.302525 0.000000 0.000000
0.322408 0.000000 0.000000
0.342123 0.000000 0.000000
0.361166 0.000000 0.000000
0.381094 0.000000 0.000000
0.402579 0.000000 0.000000
0.421592 0.000000 0.000000
0.440238 0.000000 0.000000
0.458488 0.000000 0.000000
0.477348 0.000000 0.000000
0.495888 0.000000 0.000000
0.513863 0.000000 0.000000
0.532158 0.000000 0.000000
0.550210 0.000000 0.000000
0.568399 0.000000 0.000000
0.585809 0.000000 0.000000
0.602991 0.000000 0.000000
0.619837 0.000000 0.000000
0.636439 0.000000 0.000000
0.652338 0.000000 0.000000
0.668482 0.000000 0.000000
0.684230 0.000000 0.000000
0.699916 0.000000 0.000000
0.714916 0.000000 0.000000
0.730205 0.000000 0.000000
0.745068 0.000000 0.000000
0.761303 0.000000 0.000000
0.774670 0.000000 0.000000
0.787137 0.000000 0.000000
0.798596 0.000000 0.000000
0.809842 0.000000 0.000000
0.820371 0.000000 0.000000
0.829892 0.000000 0.000000
0.838788 0.000000 0.000000
0.851865 0.000000 0.000000
0.866163 0.000000 0.000000
0.818708 0.000000 0.011826
0.000000 0.000000 0.000000
0.000000 0.000000 0.000000
0.000000 0.000000 0.000000
0.000000 0.000000 0.000000
0.000000 0.000000 0.000000
0.000000 0.000000 0.000000
0.000000 0.000000 0.000000
0.000000 0.000000 0.000000
0.000000 0.000000 0.000000
0.000000 0.000000 0.000000
0.000000 0.000000 0.000000
0.000000 0.000000 0.000000
0.000000 0.000000 0.000000
0.000000 0.000000 0.000000
0.043473 0.000000 0.000000
0.076722 0.000000 0.000000
0.094957 0.002396 0.000000
0.113848 0.003830 0.000000
0.132586 0.004318 0.000000
0.151141 0.003830 0.000000
0.170596 0.000000 0.000000
0.189792 0.000000 0.000000
0.208179 0.000000 0.000000
0.226658 0.000000 0.000000
0.245884 0.000000 0.000000
0.265248 0.000000 0.000000
0.284642 0.000000 0.000000
0.304692 0.000000 0.000000
0.324208 0.000000 0.000000
0.343938 0.000000 0.000000
0.363180 0.000000 0.000000
0.382864 0.000000 0.000000
0.404746 0.000000 0.000000
0.423987 0.000000 0.000000
0.442054 0.000000 0.000000
0.461128 0.000000 0.000000
0.479561 0.000000 0.000000
0.498253 0.000000 0.000000
0.515892 0.000000 0.000000
0.534615 0.000000 0.000000
0.552575 0.000000 0.000000
0.570626 0.000000 0.000000
0.587900 0.000000 0.000000
0.605127 0.000000 0.000000
0.621653 0.000000 0.000000
0.638224 0.000000 0.000000
0.654292 0.000000 0.000000
0.670253 0.000000 0.000000
0.686076 0.000000 0.000000
0.701564 0.000000 0.000000
0.716503 0.000000 0.000000
0.731640 0.000000 0.000000
0.746365 0.000000 0.000000
0.762402 0.000000 0.000000
0.775723 0.000000 0.000000
0.788067 0.000000 0.000000
0.799481 0.000000 0.000000
0.810742 0.000000 0.000000
0.821164 0.000000 0.000000
0.830579 0.000000 0.000000
0.839338 0.000000 0.000000
0.852598 0.000000 0.000000
0.866606 0.000000 0.000000
0.817746 0.000000 0.000000
0.000000 0.000000 0.000000
0.000000 0.000000 0.000000
0.000000 0.000000 0.000000
0.000000 0.000000 0.000000
0.000000 0.000000 0.000000
0.000000 0.000000 0.000000
0.000000 0.000000 0.000000
0.000000 0.000000 0.000000
0.000000 0.000000 0.000000
0.000000 0.000000 0.000000
0.000000 0.000000 0.000000
0.000000 0.000000 0.000000
0.000000 0.000000 0.000000
0.000000 0.000000 0.000000
0.020340 0.002396 0.000000
0.065949 0.010437 0.000000
0.087846 0.018143 0.000000
0.107210 0.024216 0.000000
0.126207 0.027604 0.000000
0.146441 0.028443 0.000000
0.166476 0.025910 0.000000
0.186542 0.023377 0.000000
0.205875 0.019913 0.000000
0.225620 0.012741 0.000000
0.245930 0.000000 0.000000
0.265797 0.000000 0.000000
0.285206 0.000000 0.000000
0.305013 0.000000 0.000000
0.324880 0.000000 0.000000
0.344503 0.000000 0.000000
0.363577 0.000000 0.000000
0.383764 0.000000 0.000000
0.405676 0.000000 0.000000
0.425269 0.000000 0.000000
0.443915 0.000000 0.000000
0.462623 0.000000 0.000000
0.481132 0.000000 0.000000
0.499779 0.000000 0.000000
0.517769 0.000000 0.000000
0.536156 0.000000 0.000000
0.554360 0.000000 0.000000
0.572503 0.000000 0.000000
0.589746 0.000000 0.000000
0.606836 0.000000 0.000000
0.623499 0.000000 0.000000
0.639994 0.000000 0.000000
0.655924 0.000000 0.000000
0.671855 0.000000 0.000000
0.687526 0.000000 0.000000
0.702983 0.000000 0.000000
0.717998 0.000000 0.000000
0.733043 0.000000 0.000000
0.747585 0.000000 0.000000
0.763363 0.000000 0.000000
0.776776 0.000000 0.000000
0.789075 0.000000 0.000000
0.800412 0.000000 0.000000
0.811643 0.000000 0.000000
0.822095 0.000000 0.000000
0.831312 0.000000 0.000000
0.840070 0.000000 0.000000
0.853544 0.000000 0.000000
0.867140 0.000000 0.000000
0.816770 0.000000 0.000000
0.000000 0.000000 0.000000
0.000000 0.000000 0.000000
0.000000 0.000000 0.000000
0.000000 0.000000 0.000000
0.000000 0.000000 0.000000
0.000000 0.000000 0.000000
0.000000 0.000000 0.000000
0.000000 0.000000 0.000000
0.000000 0.000000 0.000000
0.000000 0.000000 0.000000
0.000000 0.000000 0.000000
0.000000 0.000000 0.000000
0.000000 0.000000 0.000000
0.000000 0.000000 0.000000
0.007675 0.001434 0.000000
0.058427 0.015045 0.000000
0.083482 0.027604 0.000000
0.102968 0.037171 0.000000
0.121782 0.043122 0.000000
0.142123 0.046326 0.000000
0.162234 0.047700 0.000000
0.182544 0.049699 0.000000
0.202335 0.049699 0.000000
0.222995 0.044907 0.000000
0.243229 0.037552 0.000000
0.263371 0.028443 0.000000
0.283070 0.014130 0.000000
0.302953 0.000000 0.000000
0.322759 0.000000 0.000000
0.342611 0.000000 0.000000
0.361944 0.000000 0.000000
0.382239 0.000000 0.000000
0.404456 0.000000 0.000000
0.424094 0.000000 0.000000
0.443046 0.000000 0.000000
0.462257 0.000000 0.000000
0.481086 0.000000 0.000000
0.499702 0.000000 0.000000
0.518074 0.000000 0.000000
0.536583 0.000000 0.000000
0.554971 0.000000 0.000000
0.573098 0.000000 0.000000
0.590387 0.000000 0.000000
0.607523 0.000000 0.000000
0.624216 0.000000 0.000000
0.640879 0.000000 0.000000
0.656901 0.000000 0.000000
0.672923 0.000000 0.000000
0.688624 0.000000 0.000000
0.704143 0.000000 0.000000
0.719097 0.000000 0.000000
0.733944 0.000000 0.000000
0.748531 0.000000 0.000000
0.764263 0.000000 0.000000
0.777554 0.000000 0.000000
0.789776 0.000000 0.000000
0.801266 0.000000 0.000000
0.812421 0.000000 0.000000
0.822934 0.000000 0.000000
0.832166 0.000000 0.000000
0.841047 0.000000 0.000000
0.854505 0.000000 0.000000
0.867826 0.000000 0.000000
0.816083 0.000000 0.000000
0.000000 0.000000 0.000000
0.000000 0.000000 0.000000
0.000000 0.000000 0.000000
0.000000 0.000000 0.000000
0.000000 0.000000 0.000000
0.000000 0.000000 0.000000
0.000000 0.000000 0.000000
0.000000 0.000000 0.000000
0.000000 0.000000 0.000000
0.000000 0.000000 0.000000
0.000000 0.000000 0.000000
0.000000 0.000000 0.000000
0.000000 0.000000 0.000000
0.000000 0.000000 0.000000
0.002396 0.000961 0.000000
0.053910 0.019028 0.000000
0.081117 0.034073 0.000000
0.100053 0.046326 0.000000
0.118883 0.053910 0.000000
0.138903 0.059571 0.000000
0.158694 0.064668 0.000000
0.178698 0.068482 0.000000
0.199084 0.069642 0.000000
0.220035 0.068711 0.000000
0.240940 0.066636 0.000000
0.260731 0.063386 0.000000
0.280247 0.058152 0.000000
0.300267 0.048707 0.000000
0.320043 0.037552 0.000000
0.339757 0.022110 0.000000
0.359411 0.000000 0.000000
0.380148 0.000000 0.000000
0.402823 0.000000 0.000000
0.422705 0.000000 0.000000
0.441642 0.000000 0.000000
0.460838 0.000000 0.000000
0.479774 0.000000 0.000000
0.499016 0.000000 0.000000
0.517143 0.000000 0.000000
0.535836 0.000000 0.000000
0.554452 0.000000 0.000000
0.572808 0.000000 0.000000
0.590311 0.000000 0.000000
0.607614 0.000000 0.000000
0.624277 0.000000 0.000000
0.641032 0.000000 0.000000
0.657145 0.000000 0.000000
0.673167 0.000000 0.000000
0.689067 0.000000 0.000000
0.704738 0.000000 0.000000
0.719829 0.000000 0.000000
0.734783 0.000000 0.000000
0.749325 0.000000 0.000000
0.765011 0.000000 0.000000
0.778286 0.000000 0.000000
0.790539 0.000000 0.000000
0.802152 0.000000 0.000000
0.813291 0.000000 0.000000
0.823819 0.000000 0.000000
0.833097 0.000000 0.000000
0.842130 0.000000 0.000000
0.855558 0.000000 0.000000
0.868559 0.000000 0.000000
0.815610 0.000000 0.000000
0.000000 0.000000 0.000000
0.000000 0.000000 0.000000
0.000000 0.000000 0.000000
0.000000 0.000000 0.000000
0.000000 0.000000 0.000000
0.000000 0.000000 0.000000
0.000000 0.000000 0.000000
0.000000 0.000000 0.000000
0.000000 0.000000 0.000000
0.000000 0.000000 0.000000
0.000000 0.000000 0.000000
0.000000 0.000000 0.000000
0.000000 0.000000 0.000000
0.000000 0.000000 0.000000
0.005753 0.001923 0.000000
0.053285 0.023804 0.000000
0.080552 0.041337 0.000000
0.099275 0.054520 0.000000
0.117983 0.062867 0.000000
0.137789 0.069841 0.000000
0.157610 0.075319 0.000000
0.178363 0.078676 0.000000
0.198520 0.080842 0.000000
0.219089 0.082246 0.000000
0.239704 0.082795 0.000000
0.259724 0.082109 0.000000
0.279194 0.080842 0.000000
0.299184 0.078676 0.000000
0.319142 0.074281 0.000000
0.338872 0.068025 0.000000
0.358236 0.060136 0.000000
0.379019 0.043122 0.000000
0.401266 0.026337 0.000000
0.421347 0.000000 0.000000
0.440360 0.000000 0.000000
0.459617 0.000000 0.000000
0.478401 0.000000 0.000000
0.497398 0.000000 0.000000
0.515770 0.000000 0.000000
0.534874 0.000000 0.000000
0.553292 0.000000 0.000000
0.571496 0.000000 0.000000
0.589273 0.000000 0.000000
0.606744 0.000000 0.000000
0.623697 0.000000 0.000000
0.640436 0.000000 0.000000
0.656733 0.000000 0.000000
0.672969 0.000000 0.000000
0.688838 0.000000 0.000000
0.704662 0.000000 0.000000
0.719570 0.000000 0.000000
0.734890 0.000000 0.000000
0.749355 0.000000 0.000000
0.765576 0.000000 0.000000
0.778851 0.000000 0.000000
0.791257 0.000000 0.000000
0.802686 0.000000 0.000000
0.814038 0.000000 0.000000
0.824582 0.000000 0.000000
0.834028 0.000000 0.000000
0.843198 0.000000 0.000000
0.856428 0.000000 0.000000
0.869276 0.000000 0.000000
0.815549 0.000000 0.000000
0.000000 0.000000 0.000000
0.000000 0.000000 0.000000
0.000000 0.000000 0.000000
0.000000 0.000000 0.000000
0.000000 0.000000 0.000000
0.000000 0.000000 0.000000
0.000000 0.000000 0.000000
0.000000 0.000000 0.000000
0.000000 0.000000 0.000000
0.000000 0.000000 0.000000
0.000000 0.000000 0.000000
0.000000 0.000000 0.000000
0.000000 0.000000 0.000000
0.000000 0.000000 0.000000
0.017700 0.009049 0.000000
0.058717 0.030869 0.000000
0.082246 0.049042 0.000000
0.100160 0.062348 0.000000
0.118349 0.070451 0.000000
0.138460 0.077638 0.000000
0.158495 0.082658 0.000000
0.179416 0.086946 0.000000
0.199329 0.089876 0.000000
0.219654 0.092210 0.000000
0.239979 0.093538 0.000000
0.259937 0.094484 0.000000
0.279194 0.094835 0.000000
0.299031 0.094606 0.000000
0.318746 0.093187 0.000000
0.338415 0.091112 0.000000
0.357519 0.088365 0.000000
0.378241 0.083482 0.000000
0.400229 0.077638 0.000000
0.420066 0.069413 0.000000
0.439231 0.055451 0.000000
0.458259 0.036790 0.000000
0.477211 0.011826 0.000000
0.496193 0.000000 0.000000
0.514305 0.000000 0.000000
0.533288 0.000000 0.000000
0.551919 0.000000 0.000000
0.570321 0.000000 0.000000
0.587991 0.000000 0.000000
0.605600 0.000000 0.000000
0.622599 0.000000 0.000000
0.639551 0.000000 0.000000
0.655802 0.000000 0.000000
0.672297 0.000000 0.000000
0.688273 0.000000 0.000000
0.704265 0.000000 0.000000
0.719570 0.000000 0.000000
0.734859 0.000000 0.000000
0.749691 0.000000 0.000000
0.765911 0.000000 0.000000
0.779324 0.000000 0.000000
0.791806 0.000000 0.000000
0.803342 0.000000 0.000000
0.814694 0.000000 0.000000
0.825437 0.000000 0.000000
0.835004 0.000000 0.000000
0.844266 0.000000 0.000000
0.857572 0.000000 0.000000
0.870314 0.000000 0.000000
0.815763 0.052033 0.000000
0.000000 0.000000 0.000000
0.000000 0.000000 0.000000
0.000000 0.000000 0.000000
0.000000 0.000000 0.000000
0.000000 0.000000 0.000000
0.000000 0.000000 0.000000
0.000000 0.000000 0.000000
0.000000 0.000000 0.000000
0.000000 0.000000 0.000000
0.000000 0.000000 0.000000
0.000000 0.000000 0.000000
0.000000 0.000000 0.000000
0.000000 0.000000 0.000000
0.007187 0.004791 0.000000
0.040574 0.024643 0.000000
0.069184 0.043473 0.000000
0.085756 0.058717 0.000000
0.102647 0.069841 0.000000
0.120394 0.077485 0.000000
0.139788 0.084428 0.000000
0.160189 0.090120 0.000000
0.180392 0.094957 0.000000
0.200336 0.099062 0.000000
0.220722 0.101900 0.000000
0.240635 0.104540 0.000000
0.260426 0.106203 0.000000
0.279652 0.107515 0.000000
0.299321 0.107408 0.000000
0.319280 0.107118 0.000000
0.338613 0.107317 0.000000
0.358114 0.105379 0.000000
0.378256 0.103807 0.000000
0.399863 0.101030 0.000000
0.419928 0.096468 0.000000
0.438911 0.091966 0.000000
0.457679 0.087205 0.000000
0.476524 0.079698 0.000000
0.495201 0.070253 0.000000
0.513634 0.054826 0.000000
0.532403 0.032074 0.000000
0.551003 0.002869 0.000000
0.569436 0.000000 0.000000
0.587381 0.000000 0.000000
0.604822 0.000000 0.000000
0.621958 0.000000 0.000000
0.638941 0.000000 0.000000
0.655436 0.000000 0.000000
0.672068 0.000000 0.000000
0.688304 0.000000 0.000000
0.704494 0.000000 0.000000
0.719783 0.000000 0.000000
0.735195 0.000000 0.000000
0.750225 0.000000 0.000000
0.766430 0.000000 0.000000
0.779950 0.000000 0.000000
0.792370 0.000000 0.000000
0.803967 0.000000 0.000000
0.815534 0.000000 0.000000
0.826246 0.000000 0.000000
0.836149 0.000000 0.000000
0.845670 0.000000 0.000000
0.858930 0.000000 0.000000
0.871534 0.000000 0.000000
0.816190 0.118791 0.001923
0.000000 0.000000 0.000000
0.000000 0.000000 0.000000
0.000000 0.000000 0.000000
0.000000 0.000000 0.000000
0.000000 0.000000 0.000000
0.000000 0.000000 0.000000
0.000000 0.000000 0.000000
0.000000 0.000000 0.000000
0.000000 0.000000 0.000000
0.000000 0.000000 0.000000
0.000000 0.000000 0.000000
0.000000 0.000000 0.000000
0.011826 0.009049 0.000000
0.046677 0.034867 0.000000
0.066178 0.048035 0.000000
0.079988 0.060700 0.000000
0.092699 0.070039 0.000000
0.107912 0.078096 0.000000
0.123934 0.084840 0.000000
0.142763 0.091600 0.000000
0.162112 0.097826 0.000000
0.182483 0.103288 0.000000
0.202243 0.107713 0.000000
0.221988 0.111757 0.000000
0.241428 0.114687 0.000000
0.261295 0.117174 0.000000
0.280247 0.119234 0.000000
0.299977 0.120211 0.000000
0.319448 0.121004 0.000000
0.338842 0.121523 0.000000
0.358511 0.120211 0.000000
0.378622 0.119677 0.000000
0.400443 0.118257 0.000000
0.420066 0.115526 0.000000
0.439139 0.112993 0.000000
0.457511 0.109712 0.000000
0.476402 0.105272 0.000000
0.495216 0.099062 0.000000
0.513634 0.093294 0.000000
0.532494 0.086152 0.000000
0.551064 0.075822 0.000000
0.569390 0.062608 0.000000
0.587228 0.035279 0.000000
0.604730 0.002396 0.000000
0.621973 0.000000 0.000000
0.638880 0.000000 0.000000
0.655436 0.000000 0.000000
0.672175 0.000000 0.000000
0.688533 0.000000 0.000000
0.704707 0.000000 0.000000
0.720256 0.000000 0.000000
0.735683 0.000000 0.000000
0.750698 0.000000 0.000000
0.767056 0.000000 0.000000
0.780575 0.000000 0.000000
0.793149 0.000000 0.000000
0.804822 0.000000 0.000000
0.816297 0.000000 0.000000
0.827314 0.000000 0.000000
0.837522 0.000000 0.000000
0.847166 0.000000 0.000000
0.860349 0.000000 0.000000
0.872999 0.000000 0.000000
0.816846 0.156909 0.025483
0.000000 0.006714 0.000961
0.000000 0.014130 0.001923
0.000000 0.021225 0.002396
0.000000 0.027176 0.002396
0.000000 0.032868 0.000961
0.000000 0.033265 0.000000
0.000000 0.027604 0.000000
0.002396 0.011353 0.000000
0.000000 0.000000 0.000000
0.000000 0.000000 0.000000
0.006714 0.008133 0.000000
0.027604 0.027604 0.000000
0.050706 0.044907 0.000000
0.070253 0.060410 0.000000
0.083894 0.072282 0.000000
0.096345 0.080125 0.000000
0.107118 0.085237 0.000000
0.119768 0.091112 0.000000
0.134447 0.096803 0.000000
0.150942 0.102968 0.000000
0.168902 0.108721 0.000000
0.187884 0.114122 0.000000
0.206622 0.118791 0.000000
0.226078 0.123003 0.000000
0.245594 0.126375 0.000000
0.265278 0.129320 0.000000
0.284215 0.131395 0.000000
0.303502 0.133120 0.000000
0.322911 0.134295 0.000000
0.342260 0.135134 0.000000
0.361486 0.134829 0.000000
0.381460 0.134447 0.000000
0.403510 0.132967 0.000000
0.422721 0.132113 0.000000
0.441779 0.128908 0.000000
0.460502 0.126207 0.000000
0.479072 0.123171 0.000000
0.497551 0.120043 0.000000
0.515923 0.115053 0.000000
0.534615 0.108812 0.000000
0.553170 0.103075 0.000000
0.571572 0.094957 0.000000
0.589151 0.085634 0.000000
0.606607 0.071870 0.000000
0.623941 0.044907 0.000000
0.640894 0.008133 0.000000
0.657252 0.000000 0.000000
0.673991 0.000000 0.000000
0.690303 0.000000 0.000000
0.706523 0.000000 0.000000
0.721920 0.000000 0.000000
0.737453 0.000000 0.000000
0.752438 0.000000 0.000000
0.768704 0.000000 0.000000
0.782361 0.000000 0.000000
0.794980 0.000000 0.000000
0.806683 0.000000 0.000000
0.818082 0.000000 0.000000
0.829175 0.000000 0.000000
0.839551 0.000000 0.000000
0.849409 0.000000 0.000000
0.862272 0.000000 0.000000
0.874922 0.000000 0.000000
0.817838 0.192966 0.056382
0.000000 0.063386 0.010437
0.000000 0.067338 0.011353
0.000000 0.070451 0.010895
0.000000 0.073060 0.009049
0.000000 0.075502 0.005753
0.000000 0.076432 0.000000
0.000000 0.075822 0.000000
0.009522 0.068482 0.000000
0.022110 0.058152 0.000000
0.029267 0.052674 0.000000
0.039063 0.053910 0.000000
0.055451 0.062608 0.000000
0.070649 0.070451 0.000000
0.081956 0.077790 0.000000
0.093187 0.084291 0.000000
0.105989 0.092210 0.000000
0.120394 0.100496 0.000000
0.131792 0.105379 0.000000
0.144335 0.110201 0.000000
0.158938 0.115236 0.000000
0.174807 0.120302 0.000000
0.192020 0.125368 0.000000
0.209628 0.129641 0.000000
0.228748 0.133745 0.000000
0.247715 0.137560 0.000000
0.267155 0.140734 0.000000
0.285985 0.143053 0.000000
0.305241 0.145174 0.000000
0.324605 0.146715 0.000000
0.343679 0.147890 0.000000
0.362951 0.148028 0.000000
0.382986 0.148577 0.000000
0.404944 0.146990 0.000000
0.424369 0.146227 0.000000
0.443015 0.144900 0.000000
0.461769 0.142901 0.000000
0.480797 0.138750 0.000000
0.499016 0.136507 0.000000
0.517433 0.132662 0.000000
0.535866 0.128267 0.000000
0.554452 0.122820 0.000000
0.572595 0.116991 0.000000
0.590051 0.110780 0.000000
0.607752 0.101030 0.000000
0.624933 0.088624 0.000000
0.642069 0.070863 0.000000
0.658335 0.043473 0.000000
0.675029 0.000000 0.000000
0.691447 0.000000 0.000000
0.707591 0.000000 0.000000
0.723125 0.000000 0.000000
0.738628 0.000000 0.000000
0.753613 0.000000 0.000000
0.769909 0.000000 0.000000
0.783597 0.000000 0.000000
0.796292 0.000000 0.000000
0.808179 0.000000 0.000000
0.819532 0.000000 0.000000
0.830640 0.000000 0.000000
0.841169 0.000000 0.000000
0.851209 0.000000 0.000000
0.864195 0.000000 0.000000
0.876692 0.000000 0.000000
0.818769 0.221012 0.075975
0.000000 0.089128 0.021225
0.000000 0.091112 0.022110
0.000000 0.093294 0.021668
0.000000 0.094835 0.018585
0.000000 0.096803 0.014588
0.000000 0.098390 0.003830
0.000000 0.098940 0.000000
0.002396 0.094835 0.000000
0.029267 0.088365 0.000000
0.046326 0.083482 0.000000
0.059007 0.081682 0.000000
0.071870 0.084154 0.000000
0.081544 0.088106 0.000000
0.092088 0.093294 0.000000
0.103395 0.099168 0.000000
0.115709 0.105577 0.000000
0.129076 0.112413 0.000000
0.143984 0.120394 0.000000
0.157031 0.125704 0.000000
0.169894 0.129641 0.000000
0.183917 0.133822 0.000000
0.199435 0.138003 0.000000
0.215763 0.141909 0.000000
0.233249 0.145739 0.000000
0.251530 0.149187 0.000000
0.270405 0.152483 0.000000
0.289479 0.154711 0.000000
0.308507 0.157168 0.000000
0.327565 0.158755 0.000000
0.346716 0.159762 0.000000
0.365667 0.160327 0.000000
0.385748 0.160327 0.000000
0.407355 0.159564 0.000000
0.426642 0.158556 0.000000
0.445640 0.157351 0.000000
0.464332 0.155032 0.000000
0.482979 0.152483 0.000000
0.501381 0.150408 0.000000
0.519738 0.146365 0.000000
0.537850 0.143053 0.000000
0.556161 0.138827 0.000000
0.574609 0.132509 0.000000
0.592065 0.125963 0.000000
0.609491 0.118166 0.000000
0.626764 0.109407 0.000000
0.643595 0.097704 0.000000
0.660258 0.081544 0.000000
0.676799 0.053910 0.000000
0.693111 0.007675 0.000000
0.709331 0.000000 0.000000
0.724880 0.000000 0.000000
